kimchi_v2.cube
TITLE "Generated by Resolve"
LUT_3D_SIZE 33
0.0283665 0.0313573 0.0340734
0.0314336 0.0321355 0.0351415
0.0390478 0.0335851 0.0355383
0.0460822 0.0355383 0.0355077
0.0628672 0.0375525 0.0352483
0.0788281 0.0416419 0.0345464
0.0977798 0.045594 0.0326848
0.129015 0.0472877 0.0289006
0.161639 0.0489357 0.017792
0.193622 0.0508278 0.00317388
0.241749 0.0543374 4.57771e-05
0.294881 0.055375 0
0.352514 0.0451057 0
0.403159 0.0276799 0
0.449454 0.00292973 0
0.494636 0 0
0.534539 0 0
0.566598 0 0
0.592721 0 0
0.614374 0 0
0.631876 0 0
0.64567 0 0
0.656626 0 0
0.665644 0 0
0.672633 0 0
0.678035 0 0
0.683284 0 0
0.683619 0 0
0.683619 0 0
0.683619 0 0
0.683619 0 0
0.683619 0 0
0.683619 0 0
0.0274357 0.0340429 0.0345464
0.02916 0.0345312 0.0356146
0.0362249 0.0353857 0.0360113
0.0413977 0.0371557 0.0362554
0.0542153 0.0390326 0.0359503
0.0716259 0.0420081 0.0353704
0.0878462 0.0463722 0.033814
0.113603 0.0500649 0.0313115
0.152926 0.0520638 0.0200809
0.189044 0.0542458 0.00834669
0.228275 0.0557259 0.000411994
0.276051 0.0513161 0
0.336126 0.0475471 0
0.390082 0.0379339 0
0.437079 0.00447089 0
0.483543 0 0
0.525536 0 0
0.559655 0 0
0.587076 0 0
0.609888 0 0
0.628656 0 0
0.64329 0 0
0.654688 0 0
0.664042 0 0
0.671473 0 0
0.677089 0 0
0.682322 0 0
0.683619 0 0
0.683619 0 0
0.683619 0 0
0.683619 0 0
0.683619 0 0
0.683619 0 0
0.0241703 0.0396429 0.0356298
0.0276799 0.0398718 0.0366217
0.0318608 0.0402686 0.0373236
0.0387121 0.0415351 0.0374609
0.0451362 0.0432746 0.0374456
0.061738 0.0456245 0.0369879
0.0791943 0.0490578 0.0357366
0.0958267 0.0532845 0.0337377
0.129915 0.0554513 0.0289616
0.172488 0.0563973 0.00909438
0.214801 0.0574807 0.00216678
0.261234 0.0574807 0
0.312657 0.0528572 0
0.357076 0.0394293 0
0.41622 0.0173037 0
0.4645 0.00103761 0
0.510353 0 0
0.548272 0 0
0.57789 0 0
0.602396 0 0
0.622629 0 0
0.638804 0 0
0.651408 0 0
0.661555 0 0
0.669673 0 0
0.675639 0 0
0.680858 0 0
0.683619 0 0
0.683619 0 0
0.683619 0 0
0.683619 0 0
0.683619 0 0
0.683619 0 0
0.0193484 0.0443122 0.0374151
0.0268711 0.044358 0.0383001
0.0297093 0.044358 0.0391089
0.0370336 0.0453193 0.0393835
0.0409857 0.0471656 0.0396277
0.0505837 0.0492103 0.0395361
0.069276 0.0518959 0.0386664
0.0859541 0.0555734 0.0367742
0.107729 0.0601968 0.0339818
0.14934 0.0626078 0.0280156
0.196048 0.0647288 0.00958267
0.241749 0.0653849 0.000183108
0.293156 0.0609293 0
0.345647 0.0537728 0
0.3879 0.0382849 0
0.437537 0.00440986 0
0.485985 0 0
0.529183 0 0
0.56379 0 0
0.591516 0 0
0.614252 0 0
0.632319 0 0
0.646403 0 0
0.657526 0 0
0.666621 0 0
0.673533 0 0
0.678874 0 0
0.683619 0 0
0.683619 0 0
0.683619 0 0
0.683619 0 0
0.683619 0 0
0.683619 0 0
0.0149844 0.0521553 0.0395972
0.0192874 0.0510719 0.0396429
0.026627 0.049958 0.040528
0.0329747 0.0504005 0.0412451
0.0395819 0.0520638 0.0417182
0.0457923 0.0540932 0.0419928
0.06009 0.0562448 0.0412909
0.0767834 0.0589914 0.0400549
0.093904 0.0632639 0.0383764
0.12282 0.0679026 0.0335393
0.17348 0.0713054 0.0273289
0.221057 0.0730755 0.00582895
0.270939 0.0746471 1.5259e-05
0.325261 0.0683146 0
0.376699 0.0552071 0
0.414328 0.0340124 0
0.457374 0.0019379 0
0.50515 0 0
0.545724 0 0
0.576577 0 0
0.601984 0 0
0.622873 0 0
0.639445 0 0
0.652293 0 0
0.662425 0 0
0.670497 0 0
0.676463 0 0
0.681834 0 0
0.683619 0 0
0.683619 0 0
0.683619 0 0
0.683619 0 0
0.683619 0 0
0.00260929 0.0634012 0.0417182
0.00296025 0.062211 0.0415961
0.00909438 0.0609903 0.0421607
0.0187686 0.0598001 0.0426795
0.0331731 0.0604715 0.0432136
0.0375067 0.0624094 0.0437934
0.0480201 0.0647746 0.0440833
0.0694285 0.0675364 0.0428321
0.0869612 0.0713664 0.0411841
0.105074 0.0765545 0.0383307
0.14374 0.0807813 0.0316167
0.197314 0.084947 0.0174716
0.247486 0.0866407 0.000961318
0.304112 0.0854047 0
0.3626 0.0778821 0
0.410224 0.0614939 0
0.44184 0.0300603 0
0.47628 0 0
0.521737 0 0
0.558434 0 0
0.587503 0 0
0.611444 0 0
0.630655 0 0
0.64535 0 0
0.656886 0 0
0.666285 0 0
0.673426 0 0
0.67892 0 0
0.683619 0 0
0.683619 0 0
0.683619 0 0
0.683619 0 0
0.683619 0 0
0 0.0741741 0.0429999
0 0.0733959 0.043122
0.000198367 0.0722515 0.0445411
0.00218204 0.0707256 0.0453651
0.00770581 0.0699016 0.0454871
0.0277104 0.0713207 0.0457771
0.0365911 0.0741436 0.0462043
0.0575418 0.0775006 0.0458991
0.0804456 0.0817426 0.044007
0.100786 0.0872053 0.0410315
0.127825 0.0924697 0.0365301
0.173831 0.0981765 0.0319677
0.224613 0.102953 0.00750744
0.279667 0.107424 0
0.341436 0.105821 0
0.403891 0.0943008 0
0.450462 0.0742504 0
0.473838 0.0280613 0
0.486763 0 0
0.537041 0 0
0.570809 0 0
0.597513 0 0
0.619394 0 0
0.636881 0 0
0.650401 0 0
0.661158 0 0
0.669688 0 0
0.675883 0 0
0.681331 0 0
0.683619 0 0
0.683619 0 0
0.683619 0 0
0.683619 0 0
0 0.0881208 0.0499275
0 0.0869459 0.0496223
0 0.083711 0.0485542
0 0.0810712 0.0466621
0 0.0800641 0.0482948
0.000167849 0.0800031 0.0486305
0.0148013 0.0822766 0.0485695
0.0368505 0.0860761 0.0487221
0.0712749 0.0909133 0.0476081
0.0953536 0.0970016 0.0446784
0.120119 0.103227 0.0397498
0.158114 0.108568 0.0310674
0.207248 0.115984 0.0203861
0.258183 0.122759 0.00308232
0.316182 0.128573 0
0.38233 0.129122 0
0.446723 0.122042 0
0.493095 0.0998245 0
0.514733 0.0508583 0
0.519402 0 0
0.551003 0 0
0.581384 0 0
0.606409 0 0
0.626886 0 0
0.642863 0 0
0.654917 0 0
0.664729 0 0
0.672343 0 0
0.678096 0 0
0.683619 0 0
0.683619 0 0
0.683619 0 0
0.683619 0 0
0 0.107012 0.0540322
0 0.105837 0.0539254
0 0.102266 0.0535744
0 0.0978256 0.0523842
0 0.0935378 0.0500954
0 0.0917372 0.0510719
0 0.0920424 0.0513161
0.000991836 0.0957351 0.0509804
0.0472877 0.101518 0.0500954
0.0863966 0.108446 0.0475471
0.110552 0.115923 0.0426947
0.146532 0.122896 0.0300908
0.197711 0.131731 0.0255283
0.245411 0.139178 0.00494392
0.298009 0.147219 0
0.360098 0.152392 0
0.428458 0.152499 0
0.491844 0.148577 0
0.537072 0.133181 0
0.562951 0.0887617 0
0.556893 6.10361e-05 0
0.563455 0 0
0.591959 0 0
0.615061 0 0
0.633433 0 0
0.6477 0 0
0.658976 0 0
0.668177 0 0
0.67483 0 0
0.680293 0 0
0.683619 0 0
0.683619 0 0
0.683619 0 0
0 0.13106 0.0559854
0 0.13019 0.0559243
0 0.127077 0.0557259
0 0.12224 0.0553292
0 0.116701 0.0548562
0 0.110216 0.051957
0 0.108766 0.0531472
0 0.110216 0.0531319
0.000396735 0.115831 0.0517433
0.0543526 0.123201 0.0474403
0.100191 0.132937 0.041474
0.136858 0.145144 0.0386511
0.186633 0.154253 0.0215457
0.239063 0.164157 0.00553903
0.290593 0.174243 0.000320439
0.345586 0.182162 0
0.410193 0.186862 0
0.479133 0.187427 0
0.537911 0.182025 0
0.581659 0.165377 0
0.610407 0.13434 0
0.607721 0.0273136 0
0.575113 0 0
0.601251 0 0
0.622644 0 0
0.639521 0 0
0.652567 0 0
0.662791 0 0
0.670924 0 0
0.676951 0 0
0.68249 0 0
0.683619 0 0
0.683619 0 0
0 0.155535 0.0574502
0 0.154879 0.057435
0 0.152178 0.0573434
0 0.147814 0.057084
0 0.142504 0.056733
0 0.137224 0.0563821
0 0.132723 0.0560922
0 0.132265 0.05626
0 0.135332 0.0560159
0 0.14406 0.0543526
0.062211 0.155184 0.0470283
0.114534 0.167758 0.0370031
0.169848 0.180255 0.021622
0.229252 0.192599 0.00450141
0.285908 0.205631 0
0.342611 0.216892 0
0.402686 0.225162 0
0.467948 0.23093 0
0.532265 0.232792 0
0.585809 0.227726 0
0.628275 0.210071 0
0.656977 0.177081 0
0.659464 0.121599 0
0.606836 0 0
0.610117 0 0
0.629999 0 0
0.645014 0 0
0.656733 0 0
0.666255 0 0
0.673487 0 0
0.679072 0 0
0.683619 0 0
0.683619 0 0
0 0.181094 0.057969
0 0.18056 0.0579995
0 0.178012 0.0581216
0 0.173877 0.0581064
0 0.16878 0.0579232
0 0.163363 0.0577249
0 0.158495 0.057557
0 0.155047 0.057435
0 0.154726 0.0574655
0 0.159655 0.0570687
0.00132753 0.172244 0.0525521
0.076112 0.187289 0.034699
0.140902 0.20325 0.012665
0.211551 0.219028 7.62951e-05
0.276677 0.235477 3.0518e-05
0.337667 0.250156 0
0.400473 0.261982 0
0.465919 0.270848 0
0.529763 0.277119 0
0.58732 0.279408 0
0.635386 0.275242 0
0.675593 0.261692 0
0.702556 0.233585 0
0.707698 0.178927 0
0.669291 0.0372015 0
0.618189 0 0
0.636027 0 0
0.649851 0 0
0.660807 0 0
0.669535 0 0
0.675792 0 0
0.681285 0 0
0.683619 0 0
0 0.209689 0.0558633
0 0.209262 0.0559396
0 0.206836 0.0563973
0 0.202655 0.0568856
0 0.197375 0.057145
0 0.191455 0.0574502
0 0.185718 0.0577401
0 0.181003 0.057969
0 0.178012 0.0581216
0 0.177188 0.0581674
0 0.184176 0.0577859
1.5259e-05 0.201724 0.047013
0.0855573 0.22237 0.00979629
0.17734 0.244221 0
0.258473 0.264118 0
0.327779 0.282582 0
0.394308 0.298054 0
0.463401 0.31017 0
0.532555 0.319936 0
0.59295 0.326284 0
0.64242 0.328099 0
0.686885 0.324147 0
0.724071 0.312886 0
0.747936 0.290593 0
0.752667 0.24828 0
0.728038 0.156695 0
0.616938 0 0
0.642145 0 0
0.654398 0 0
0.664347 0 0
0.672099 0 0
0.677943 0 0
0.683528 0 0
0 0.241306 0.0488441
0 0.241001 0.0489662
0 0.238849 0.0498665
0 0.234791 0.051194
0 0.229313 0.0522011
0 0.222965 0.0533913
0 0.216449 0.054612
0 0.210605 0.0556954
0 0.206149 0.0565194
0 0.2038 0.0568246
0 0.203616 0.0568399
0 0.210544 0.0559701
9.15541e-05 0.234699 0.0340429
0.103029 0.264897 0
0.220661 0.291402 0
0.307759 0.315282 0
0.383032 0.335531 0
0.456931 0.351751 0
0.530388 0.364965 0
0.596841 0.375067 0
0.651072 0.380987 0
0.696452 0.382055 0
0.737194 0.378088 0
0.770581 0.368307 0
0.79144 0.34844 0
0.796811 0.3131 0
0.7794 0.245136 0
0.701335 0.028748 0
0.647257 0 0
0.658518 0 0
0.667796 0 0
0.674617 0 0
0.680095 0 0
0 0.273625 0.0327611
0 0.273426 0.0329595
0 0.271702 0.034699
0 0.268162 0.0377356
0 0.262928 0.0399023
0 0.256641 0.0424964
0 0.249958 0.0452735
0 0.243565 0.0479133
0 0.238163 0.0501411
0 0.234455 0.0512551
0 0.232746 0.0515755
0 0.233158 0.0514992
0 0.238895 0.0507973
0 0.273091 0.00602731
0.124681 0.313466 0
0.26453 0.345769 0
0.358755 0.373098 0
0.441642 0.394644 0
0.522286 0.411856 0
0.596506 0.426032 0
0.658 0.436255 0
0.707729 0.44181 0
0.750423 0.442771 0
0.786603 0.439307 0
0.814664 0.430152 0
0.831952 0.411704 0
0.837369 0.378988 0
0.82652 0.323735 0
0.777066 0.19913 0
0.652476 0 0
0.662577 0 0
0.670695 0 0
0.676753 0 0
0 0.303853 0.00560006
0 0.303731 0.00563058
0 0.302403 0.00595102
0 0.29955 0.00677501
0 0.294987 0.0113375
0 0.289403 0.0169528
0 0.283238 0.0231174
0 0.277089 0.0292821
0 0.27155 0.0348516
0 0.267002 0.0382086
0 0.263981 0.0394598
0 0.262913 0.0399023
0 0.263813 0.0395361
0 0.266773 0.0382239
6.10361e-05 0.313207 0.000549325
0.154147 0.364889 0
0.310536 0.403769 0
0.413458 0.433845 0
0.505028 0.456458 0
0.590341 0.475059 0
0.661173 0.489586 0
0.716548 0.499413 0
0.76347 0.504631 0
0.803571 0.505928 0
0.835035 0.503212 0
0.857328 0.49514 0
0.870985 0.478614 0
0.875761 0.450141 0
0.869017 0.401801 0
0.835935 0.311757 0
0.679835 0 0
0.666285 0 0
0.673396 0 0
0 0.331365 0
0 0.331289 0
0 0.330205 0
0 0.327733 0
0 0.323934 0.000839246
0 0.319173 0.00196841
0 0.313787 0.00325017
0 0.308232 0.00456245
0 0.302953 0.00581369
0 0.298283 0.00805676
0 0.294499 0.011841
0 0.292317 0.0140383
0 0.291875 0.0144656
0 0.293019 0.0133211
0 0.294362 0.0119783
0 0.347677 0
0.18529 0.414221 0
0.357824 0.460502 0
0.471214 0.492592 0
0.570748 0.516472 0
0.654597 0.535485 0
0.718944 0.549355 0
0.771267 0.558358 0
0.815763 0.56347 0
0.851484 0.565332 0
0.877379 0.563149 0
0.895262 0.556085 0
0.906889 0.542855 0
0.912291 0.521416 0
0.907713 0.483009 0
0.884627 0.407721 0
0.802106 0.223056 0
0.669825 0 0
0 0.357671 0
0 0.357626 0
0 0.356771 0
0 0.354696 0
0 0.351354 0
0 0.347021 0
0 0.342046 0
0 0.336751 0
0 0.331548 0
0 0.326802 0.00015259
0 0.322759 0.00111391
0 0.319905 0.00178531
0 0.318471 0.00213626
0 0.318517 0.002121
0 0.319722 0.00183108
0 0.320943 0.00154116
0 0.372045 1.5259e-05
0.223697 0.458717 0
0.405524 0.512459 0
0.530739 0.546517 0
0.634363 0.571557 0
0.712474 0.590127 0
0.772091 0.602899 0
0.821622 0.611231 0
0.861906 0.616251 0
0.892348 0.618128 0
0.913985 0.616251 0
0.928969 0.610513 0
0.939406 0.600916 0
0.945098 0.585824 0
0.942748 0.558465 0
0.926284 0.5028 0
0.876036 0.371405 0
0 0.381659 0
0 0.381643 0
0 0.381048 0
0 0.379492 0
0 0.376745 0
0 0.372961 0
0 0.368536 0
0 0.363729 0
0 0.358862 0
0 0.354269 0
0 0.34995 0
0 0.346532 0
0 0.344289 0
0 0.343359 0
0 0.343801 0
0 0.345022 0
0 0.346212 0
0 0.382269 0
0.243732 0.501228 0
0.452445 0.563485 0
0.590112 0.599786 0
0.694102 0.626032 0
0.765301 0.643565 0
0.821607 0.655238 0
0.867613 0.663111 0
0.902785 0.667964 0
0.92813 0.669612 0
0.946136 0.667674 0
0.959136 0.662867 0
0.968505 0.655543 0
0.973632 0.64387 0
0.97261 0.623545 0
0.9626 0.585885 0
0 0.401175 0
0 0.40116 0
0 0.400793 0
0 0.399756 0
0 0.397803 0
0 0.394858 0
0 0.391363 0
0 0.387503 0
0 0.383505 0
0 0.379599 0
0 0.375479 0
0 0.371832 0
0 0.3691 0
0 0.367453 0
0 0.366964 0
0 0.367681 0
0 0.368826 0
0 0.369924 0
0 0.378378 0
0.255772 0.539391 0
0.498085 0.611643 0
0.647135 0.651255 0
0.744976 0.677058 0
0.813733 0.693706 0
0.867872 0.704723 0
0.909041 0.712261 0
0.938384 0.716793 0
0.95906 0.71783 0
0.974395 0.716426 0
0.985763 0.713314 0
0.99205 0.707576 0
0.993851 0.697887 0
0.99649 0.68307 0
0 0.415518 0
0 0.415518 0
0 0.41529 0
0 0.414588 0
0 0.413291 0
0 0.411261 0
0 0.408789 0
0 0.406043 0
0 0.403143 0
0 0.400244 0
0 0.396948 0
0 0.393652 0
0 0.390967 0
0 0.389044 0
0 0.388006 0
0 0.3879 0
0 0.388663 0
0 0.389609 0
0 0.390539 0
0 0.391409 0
0.25037 0.568444 0
0.541497 0.654337 0
0.699092 0.697017 0
0.792081 0.721599 0
0.857832 0.736675 0
0.907271 0.746929 0
0.942412 0.753841 0
0.966995 0.757519 0
0.984649 0.758694 0
0.994415 0.757259 0
0.997635 0.753597 0
1 0.748882 0
1 0.741619 0
0 0.426291 0
0 0.426291 0
0 0.426139 0
0 0.425635 0
0 0.42472 0
0 0.423285 0
0 0.421546 0
0 0.419562 0
0 0.417441 0
0 0.415274 0
0 0.412909 0
0 0.41033 0
0 0.408103 0
0 0.406348 0
0 0.405173 0
0 0.404623 0
0 0.40473 0
0 0.405386 0
0 0.406088 0
0 0.406775 0
0 0.407416 0
0.206043 0.582742 0
0.580209 0.68896 0
0.744091 0.733989 0
0.834745 0.757351 0
0.897475 0.771069 0
0.94078 0.78027 0
0.970199 0.786038 0
0.989868 0.788815 0
0.998291 0.788159 0
1 0.78558 0
1 0.782559 0
1 0.779065 0
0 0.434989 0
0 0.434989 0
0 0.434882 0
0 0.43447 0
0 0.433768 0
0 0.432685 0
0 0.431357 0
0 0.429831 0
0 0.428168 0
0 0.426444 0
0 0.424674 0
0 0.42266 0
0 0.420844 0
0 0.419348 0
0 0.418204 0
0 0.417502 0
0 0.417243 0
0 0.417441 0
0 0.417975 0
0 0.418494 0
0 0.418997 0
0 0.419486 0
0.0735637 0.576043 0
0.612512 0.716258 0
0.783108 0.763912 0
0.872053 0.785611 0
0.931014 0.798566 0
0.968399 0.806775 0
0.991394 0.81088 0
1 0.810758 0
1 0.808301 0
1 0.806439 0
1 0.804578 0
0 0.442481 0
0 0.442481 0
0 0.44242 0
0 0.44213 0
0 0.441611 0
0 0.440726 0
0 0.439612 0
0 0.438331 0
0 0.436912 0
0 0.435431 0
0 0.433936 0
0 0.432273 0
0 0.430747 0
0 0.429419 0
0 0.428336 0
0 0.427543 0
0 0.4271 0
0 0.426993 0
0 0.427253 0
0 0.427695 0
0 0.428107 0
0 0.428519 0
0 0.428916 0
0 0.522225 0
0.635706 0.737133 0
0.816434 0.78793 0
0.905623 0.809003 0
0.957671 0.820859 0
0.989715 0.827787 0
0.998901 0.827939 0
1 0.826123 0
1 0.824781 0
1 0.823682 0
0 0.448463 0
0 0.448463 0
0 0.448432 0
0 0.448218 0
0 0.447837 0
0 0.447181 0
0 0.446342 0
0 0.44535 0
0 0.444251 0
0 0.443076 0
0 0.441886 0
0 0.440482 0
0 0.439094 0
0 0.437827 0
0 0.436759 0
0 0.43592 0
0 0.43534 0
0 0.43505 0
0 0.43505 0
0 0.43534 0
0 0.435721 0
0 0.436088 0
0 0.436454 0
0 0.43679 0
0 0.437125 0
0.647074 0.75201 0
0.846052 0.808026 0
0.933669 0.828489 0
0.980316 0.839338 0
0.998871 0.842344 0
1 0.840558 0
1 0.839216 0
1 0.838361 0
0 0.453376 0
0 0.453376 0
0 0.453346 0
0 0.453147 0
0 0.452766 0
0 0.452247 0
0 0.451606 0
0 0.450858 0
0 0.450019 0
0 0.449119 0
0 0.448188 0
0 0.447105 0
0 0.44596 0
0 0.444907 0
0 0.443961 0
0 0.443183 0
0 0.442588 0
0 0.442206 0
0 0.442039 0
0 0.442115 0
0 0.442374 0
0 0.442679 0
0 0.442985 0
0 0.443275 0
0 0.443549 0
0 0.443809 0
0.639673 0.759228 0
0.871046 0.824262 0
0.95761 0.844556 0
0.996262 0.8533 0
1 0.851865 0
1 0.850385 0
1 0.849577 0
0 0.458854 0
0 0.458854 0
0 0.458824 0
0 0.458579 0
0 0.458122 0
0 0.457542 0
0 0.456886 0
0 0.456107 0
0 0.455222 0
0 0.454276 0
0 0.453269 0
0 0.452293 0
0 0.451377 0
0 0.450507 0
0 0.449714 0
0 0.449027 0
0 0.448478 0
0 0.448066 0
0 0.447822 0
0 0.44773 0
0 0.447837 0
0 0.448066 0
0 0.44831 0
0 0.448554 0
0 0.448783 0
0 0.448997 0
0 0.44921 0
0.598169 0.754147 0
0.891524 0.836667 0
0.977615 0.857176 0
1 0.860945 0
1 0.858778 0
1 0.85771 0
0 0.465904 0
0 0.465904 0
0 0.465873 0
0 0.465614 0
0 0.46511 0
0 0.464424 0
0 0.4636 0
0 0.462608 0
0 0.461494 0
