kimchi_v2_17.cube
LUT_3D_SIZE 9
TITLE "Kimchi v2 17"
0.028367 0.031357 0.034073
0.062867 0.037552 0.035248
0.161639 0.048936 0.017792
0.352514 0.045106 0.000000
0.534539 0.000000 0.000000
0.631876 0.000000 0.000000
0.672633 0.000000 0.000000
0.683619 0.000000 0.000000
0.683619 0.000000 0.000000
0.014984 0.052155 0.039597
0.039582 0.052064 0.041718
0.093904 0.063264 0.038376
0.270939 0.074647 0.000015
0.457374 0.001938 0.000000
0.601984 0.000000 0.000000
0.662425 0.000000 0.000000
0.683619 0.000000 0.000000
0.683619 0.000000 0.000000
0.000000 0.107012 0.054032
0.000000 0.093538 0.050095
0.047288 0.101518 0.050095
0.197711 0.131731 0.025528
0.428458 0.152499 0.000000
0.556893 0.000061 0.000000
0.633433 0.000000 0.000000
0.674830 0.000000 0.000000
0.683619 0.000000 0.000000
0.000000 0.209689 0.055863
0.000000 0.197375 0.057145
0.000000 0.178012 0.058122
0.085557 0.222370 0.009796
0.394308 0.298054 0.000000
0.642420 0.328099 0.000000
0.752667 0.248280 0.000000
0.654398 0.000000 0.000000
0.683528 0.000000 0.000000
0.000000 0.331365 0.000000
0.000000 0.323934 0.000839
0.000000 0.302953 0.005814
0.000000 0.291875 0.014466
0.185290 0.414221 0.000000
0.654597 0.535485 0.000000
0.851484 0.565332 0.000000
0.912291 0.521416 0.000000
0.669825 0.000000 0.000000
0.000000 0.415518 0.000000
0.000000 0.413291 0.000000
0.000000 0.403143 0.000000
0.000000 0.390967 0.000000
0.000000 0.388663 0.000000
0.250370 0.568444 0.000000
0.857832 0.736675 0.000000
0.984649 0.758694 0.000000
1.000000 0.741619 0.000000
0.000000 0.448463 0.000000
0.000000 0.447837 0.000000
0.000000 0.444251 0.000000
0.000000 0.439094 0.000000
0.000000 0.435340 0.000000
0.000000 0.435721 0.000000
0.000000 0.437125 0.000000
0.980316 0.839338 0.000000
1.000000 0.838361 0.000000
0.000000 0.474052 0.000000
0.000000 0.473289 0.000000
0.000000 0.469245 0.000000
0.000000 0.463478 0.000000
0.000000 0.458854 0.000000
0.000000 0.457053 0.000000
0.000000 0.457786 0.000000
0.000000 0.459052 0.000000
1.000000 0.869322 0.000000
0.000000 0.489479 0.000000
0.000000 0.489479 0.000000
0.000000 0.489479 0.000000
0.000000 0.489479 0.000000
0.000000 0.489479 0.000000
0.000000 0.486885 0.000000
0.000000 0.485710 0.000000
0.000000 0.487251 0.000000
0.000000 0.488823 0.000000
0.027283 0.031022 0.047990
0.055924 0.036973 0.050889
0.138125 0.047135 0.047700
0.317113 0.016907 0.000000
0.514916 0.000000 0.000000
0.620920 0.000000 0.000000
0.669062 0.000000 0.000000
0.683619 0.000000 0.000000
0.683619 0.000000 0.000000
0.013336 0.049607 0.053086
0.040238 0.052888 0.055024
0.149828 0.066712 0.049958
0.343633 0.037949 0.000061
0.516686 0.000000 0.000000
0.623865 0.000000 0.000000
0.669764 0.000000 0.000000
0.683619 0.000000 0.000000
0.683619 0.000000 0.000000
0.000000 0.106325 0.061250
0.000000 0.105455 0.060807
0.095949 0.115343 0.060746
0.242969 0.133242 0.027939
0.507561 0.127199 0.000000
0.581659 0.000000 0.000000
0.655177 0.000000 0.000000
0.683619 0.000000 0.000000
0.683619 0.000000 0.000000
0.000000 0.207492 0.056275
0.000000 0.206897 0.056382
0.000000 0.180148 0.056382
0.146456 0.230564 0.001724
0.437354 0.297002 0.000000
0.686320 0.310582 0.000000
0.659327 0.000000 0.000000
0.669169 0.000000 0.000000
0.683619 0.000000 0.000000
0.000000 0.330785 0.000000
0.000000 0.330632 0.000000
0.000000 0.316793 0.002533
0.000000 0.291524 0.014832
0.315862 0.441398 0.000000
0.696056 0.537636 0.000000
0.867613 0.553735 0.000000
0.896345 0.449973 0.000000
0.678218 0.000000 0.000000
0.000000 0.415442 0.000000
0.000000 0.415427 0.000000
0.000000 0.411185 0.000000
0.000000 0.397040 0.000000
0.000000 0.387167 0.000000
0.481346 0.633829 0.000000
0.891035 0.739223 0.000000
0.990341 0.752361 0.000000
0.999832 0.723186 0.000000
0.000000 0.448463 0.000000
0.000000 0.448447 0.000000
0.000000 0.447333 0.000000
0.000000 0.442451 0.000000
0.000000 0.436439 0.000000
0.000000 0.435142 0.000000
0.538140 0.719265 0.000000
0.998520 0.841550 0.000000
1.000000 0.836179 0.000000
0.000000 0.474052 0.000000
0.000000 0.474052 0.000000
0.000000 0.472831 0.000000
0.000000 0.467475 0.000000
0.000000 0.461082 0.000000
0.000000 0.457282 0.000000
0.000000 0.457404 0.000000
0.000000 0.458534 0.000000
1.000000 0.867811 0.000000
0.000000 0.489479 0.000000
0.000000 0.489479 0.000000
0.000000 0.489479 0.000000
0.000000 0.489479 0.000000
0.000000 0.489479 0.000000
0.000000 0.488563 0.000000
0.000000 0.485603 0.000000
0.000000 0.486686 0.000000
0.000000 0.488212 0.000000
0.015488 0.028412 0.101518
0.047639 0.033722 0.107408
0.135683 0.045624 0.113436
0.291417 0.017624 0.110842
0.486854 0.000000 0.098970
0.615213 0.000000 0.000000
0.660075 0.000000 0.000000
0.683619 0.000000 0.000000
0.683619 0.000000 0.000000
0.002533 0.041718 0.105791
0.030167 0.044511 0.107424
0.129122 0.056138 0.113588
0.296529 0.027314 0.106218
0.503304 0.000000 0.088136
0.618845 0.000000 0.000000
0.664942 0.000000 0.000000
0.683619 0.000000 0.000000
0.683619 0.000000 0.000000
0.000000 0.112123 0.130083
0.000000 0.110292 0.128939
0.109194 0.132570 0.131563
0.367361 0.141680 0.113008
0.536568 0.000000 0.021378
0.614984 0.000000 0.000000
0.666133 0.000000 0.000000
0.683619 0.000000 0.000000
0.683619 0.000000 0.000000
0.000000 0.223117 0.093996
0.000000 0.222278 0.093278
0.000000 0.220569 0.091752
0.264698 0.281392 0.093477
0.508888 0.305867 0.000549
0.730343 0.259754 0.000000
0.645182 0.000000 0.000000
0.679515 0.000000 0.000000
0.683619 0.000000 0.000000
0.000000 0.329702 0.000000
0.000000 0.329549 0.000000
0.000000 0.329213 0.000000
0.000000 0.300404 0.006424
0.395392 0.454932 0.000000
0.731029 0.534783 0.000000
0.887175 0.531655 0.000000
0.762646 0.144976 0.000000
0.683619 0.000000 0.000000
0.000000 0.415305 0.000000
0.000000 0.415290 0.000000
0.000000 0.415244 0.000000
0.000000 0.406729 0.000000
0.000000 0.387366 0.000000
0.612802 0.665553 0.000000
0.917723 0.739437 0.000000
0.995544 0.744091 0.000000
0.996567 0.676555 0.000000
0.000000 0.448432 0.000000
0.000000 0.448432 0.000000
0.000000 0.448432 0.000000
0.000000 0.446342 0.000000
0.000000 0.439231 0.000000
0.000000 0.434577 0.000000
0.763577 0.783047 0.000000
0.999512 0.838468 0.000000
1.000000 0.833738 0.000000
0.000000 0.474037 0.000000
0.000000 0.474037 0.000000
0.000000 0.474037 0.000000
0.000000 0.472053 0.000000
0.000000 0.464759 0.000000
0.000000 0.458289 0.000000
0.000000 0.457008 0.000000
0.779934 0.815854 0.000000
1.000000 0.866697 0.000000
0.000000 0.489479 0.000000
0.000000 0.489479 0.000000
0.000000 0.489479 0.000000
0.000000 0.489479 0.000000
0.000000 0.489479 0.000000
0.000000 0.489479 0.000000
0.000000 0.486076 0.000000
0.000000 0.486091 0.000000
0.000000 0.487602 0.000000
0.000000 0.000000 0.203525
0.020920 0.000000 0.208362
0.129076 0.000305 0.228962
0.301991 0.000000 0.244999
0.498039 0.000000 0.256428
0.624308 0.000000 0.247532
0.676310 0.000000 0.145586
0.680323 0.000000 0.000000
0.683619 0.000000 0.000000
0.000000 0.000000 0.201465
0.000763 0.000000 0.202518
0.114244 0.000183 0.224704
0.295094 0.000000 0.242008
0.496071 0.000000 0.253574
0.626963 0.000000 0.245090
0.676539 0.000000 0.112169
0.682811 0.000000 0.000000
0.683619 0.000000 0.000000
0.000000 0.063417 0.239734
0.000000 0.059510 0.237659
0.085679 0.089372 0.255085
0.322911 0.069963 0.265293
0.489860 0.000000 0.246189
0.634745 0.000000 0.234531
0.673625 0.000000 0.000000
0.683619 0.000000 0.000000
0.683619 0.000000 0.000000
0.000000 0.251225 0.299153
0.000000 0.250385 0.298573
0.000000 0.248692 0.297398
0.329091 0.334997 0.315602
0.659770 0.322438 0.291066
0.687175 0.000000 0.183810
0.662043 0.000000 0.000000
0.683619 0.000000 0.000000
0.683619 0.000000 0.000000
0.000000 0.382757 0.216144
0.000000 0.382406 0.215427
0.000000 0.381689 0.213931
0.000000 0.379339 0.209064
0.543389 0.546654 0.254322
0.765240 0.542763 0.176318
0.893828 0.469718 0.000000
0.674739 0.000000 0.000000
0.683619 0.000000 0.000000
0.000000 0.414847 0.000000
0.000000 0.414832 0.000000
0.000000 0.414786 0.000000
0.000000 0.414649 0.000000
0.000000 0.395102 0.000000
0.701869 0.684627 0.000000
0.936309 0.735821 0.000000
1.000000 0.731014 0.000000
0.883207 0.373602 0.000000
0.000000 0.448371 0.000000
0.000000 0.448371 0.000000
0.000000 0.448371 0.000000
0.000000 0.448356 0.000000
0.000000 0.444190 0.000000
0.000000 0.434791 0.000000
0.858671 0.806607 0.000000
1.000000 0.835416 0.000000
1.000000 0.830671 0.000000
0.000000 0.474006 0.000000
0.000000 0.474006 0.000000
0.000000 0.474006 0.000000
0.000000 0.473991 0.000000
0.000000 0.470573 0.000000
0.000000 0.461204 0.000000
0.000000 0.456641 0.000000
0.943389 0.857466 0.000000
1.000000 0.865736 0.000000
0.000000 0.489479 0.000000
0.000000 0.489479 0.000000
0.000000 0.489479 0.000000
0.000000 0.489479 0.000000
0.000000 0.489479 0.000000
0.000000 0.489479 0.000000
0.000000 0.487755 0.000000
0.000000 0.485481 0.000000
0.926558 0.863874 0.000000
0.000000 0.000000 0.315602
0.000000 0.000000 0.315541
0.084443 0.000000 0.337591
0.301137 0.000000 0.372152
0.512840 0.000000 0.394934
0.645075 0.000000 0.406790
0.702617 0.000000 0.397726
0.718288 0.000000 0.317754
0.683619 0.000000 0.000000
0.000000 0.000000 0.315038
0.000000 0.000000 0.314977
0.064485 0.000000 0.331960
0.293584 0.000000 0.370535
0.511086 0.000000 0.394049
0.644709 0.000000 0.406043
0.702449 0.000000 0.396780
0.718181 0.000000 0.310796
0.683619 0.000000 0.000000
0.000000 0.000000 0.313848
0.000000 0.000000 0.313787
0.000000 0.000000 0.322011
0.278843 0.000000 0.367224
0.507332 0.000000 0.392172
0.643961 0.000000 0.404471
0.703670 0.000000 0.395743
0.716030 0.000000 0.280766
0.683619 0.000000 0.000000
0.000000 0.175631 0.428077
0.000000 0.173663 0.427161
0.000000 0.169421 0.425101
0.271595 0.239506 0.469871
0.601083 0.184451 0.473487
0.644022 0.000000 0.400427
0.706371 0.000000 0.386389
0.702007 0.000000 0.103380
0.683619 0.000000 0.000000
0.000000 0.426108 0.501640
0.000000 0.425879 0.501457
0.000000 0.425376 0.501076
0.000000 0.423789 0.499870
0.646082 0.621103 0.544259
0.868772 0.590188 0.520943
0.784665 0.114641 0.376608
0.683619 0.000000 0.000000
0.683619 0.000000 0.000000
0.000000 0.509590 0.414405
0.000000 0.509499 0.414130
0.000000 0.509316 0.413550
0.000000 0.508736 0.411719
0.000000 0.506813 0.405707
0.797055 0.780957 0.495689
0.922301 0.768933 0.456931
0.999619 0.693202 0.000000
0.683619 0.000000 0.000000
0.000000 0.448173 0.000000
0.000000 0.448173 0.000000
0.000000 0.448173 0.000000
0.000000 0.448157 0.000000
0.000000 0.448096 0.000000
0.000000 0.438437 0.000000
0.901122 0.823850 0.000000
1.000000 0.831617 0.000000
1.000000 0.825681 0.000000
0.000000 0.473899 0.000000
0.000000 0.473899 0.000000
0.000000 0.473899 0.000000
0.000000 0.473884 0.000000
0.000000 0.473854 0.000000
0.000000 0.467369 0.000000
0.000000 0.456886 0.000000
0.992737 0.868406 0.000000
1.000000 0.864790 0.000000
0.000000 0.489479 0.000000
0.000000 0.489479 0.000000
0.000000 0.489479 0.000000
0.000000 0.489479 0.000000
0.000000 0.489479 0.000000
0.000000 0.489479 0.000000
0.000000 0.489479 0.000000
0.000000 0.484901 0.000000
1.000000 0.879301 0.000000
0.000000 0.000000 0.403510
0.000000 0.000000 0.403494
0.000000 0.000000 0.403479
0.236454 0.000000 0.459144
0.513909 0.000000 0.500694
0.659129 0.000000 0.518837
0.721569 0.000000 0.525780
0.746288 0.000000 0.522713
0.740963 0.000000 0.455848
0.000000 0.000000 0.403388
0.000000 0.000000 0.403388
0.000000 0.000000 0.403357
0.226764 0.000000 0.457298
0.512078 0.000000 0.500313
0.658824 0.000000 0.518654
0.721508 0.000000 0.525612
0.746242 0.000000 0.522499
0.740841 0.000000 0.455039
0.000000 0.000000 0.403143
0.000000 0.000000 0.403128
0.000000 0.000000 0.403113
0.203983 0.000000 0.452934
0.508171 0.000000 0.499519
0.658167 0.000000 0.518242
0.721370 0.000000 0.525261
0.746166 0.000000 0.522026
0.739971 0.000000 0.449439
0.000000 0.000000 0.402350
0.000000 0.000000 0.402335
0.000000 0.000000 0.402319
0.083421 0.000000 0.430076
0.493751 0.000000 0.496422
0.656062 0.000000 0.516899
0.720943 0.000000 0.524147
0.746578 0.000000 0.521355
0.737133 0.000000 0.424857
0.000000 0.349462 0.608682
0.000000 0.348821 0.608423
0.000000 0.347494 0.607889
0.000000 0.343084 0.606210
0.573281 0.489372 0.681926
0.815183 0.419745 0.675120
0.720623 0.000000 0.521187
0.747036 0.000000 0.514504
0.717357 0.000000 0.265034
0.000000 0.543969 0.661280
0.000000 0.543923 0.661250
0.000000 0.543862 0.661189
0.000000 0.543633 0.660990
0.000000 0.542916 0.660365
0.864256 0.834897 0.733837
0.965164 0.814633 0.718944
0.890364 0.421164 0.605035
0.683619 0.000000 0.000000
0.000000 0.568872 0.599145
0.000000 0.568856 0.599084
0.000000 0.568826 0.598947
0.000000 0.568734 0.598505
0.000000 0.568460 0.597070
0.000000 0.567544 0.592401
0.928679 0.896864 0.705974
0.980926 0.892607 0.687434
1.000000 0.813107 0.000000
0.000000 0.473548 0.000000
0.000000 0.473548 0.000000
0.000000 0.473548 0.000000
0.000000 0.473533 0.000000
0.000000 0.473503 0.000000
0.000000 0.473411 0.000000
0.000000 0.460441 0.000000
0.957870 0.897047 0.535561
1.000000 0.863554 0.000000
0.000000 0.489479 0.000000
0.000000 0.489479 0.000000
0.000000 0.489479 0.000000
0.000000 0.489479 0.000000
0.000000 0.489479 0.000000
0.000000 0.489479 0.000000
0.000000 0.489479 0.000000
0.000000 0.485451 0.000000
1.000000 0.877089 0.000000
0.000000 0.000000 0.455039
0.000000 0.000000 0.455039
0.000000 0.000000 0.455039
0.000000 0.000000 0.455024
0.452354 0.000000 0.550195
0.666316 0.000000 0.582132
0.736019 0.000000 0.593622
0.762554 0.000000 0.600381
0.766888 0.000000 0.597131
0.000000 0.000000 0.455024
0.000000 0.000000 0.455024
0.000000 0.000000 0.455024
0.000000 0.000000 0.455009
0.448661 0.000000 0.549554
0.665995 0.000000 0.582055
0.735973 0.000000 0.593591
0.762539 0.000000 0.600351
0.766873 0.000000 0.597101
0.000000 0.000000 0.454978
0.000000 0.000000 0.454978
0.000000 0.000000 0.454978
0.000000 0.000000 0.454963
0.440742 0.000000 0.548226
0.665309 0.000000 0.581903
0.735882 0.000000 0.593530
0.762493 0.000000 0.600290
0.766842 0.000000 0.597025
0.000000 0.000000 0.454841
0.000000 0.000000 0.454841
0.000000 0.000000 0.454841
0.000000 0.000000 0.454826
0.411902 0.000000 0.543633
0.663096 0.000000 0.581415
0.735576 0.000000 0.593317
0.762387 0.000000 0.600061
0.766766 0.000000 0.596750
0.000000 0.000000 0.454398
0.000000 0.000000 0.454398
0.000000 0.000000 0.454383
0.000000 0.000000 0.454383
0.265034 0.000000 0.519402
0.654353 0.000000 0.579431
0.734600 0.000000 0.592615
0.761990 0.000000 0.599329
0.766583 0.000000 0.596201
0.000000 0.503441 0.720302
0.000000 0.503334 0.720272
0.000000 0.503120 0.720195
0.000000 0.502419 0.719951
0.000000 0.499825 0.719112
0.820005 0.742611 0.816068
0.934249 0.685023 0.809506
0.761349 0.000000 0.597482
0.765164 0.000000 0.591806
0.000000 0.586389 0.743496
0.000000 0.586374 0.743496
0.000000 0.586358 0.743481
0.000000 0.586328 0.743435
0.000000 0.586191 0.743297
0.000000 0.585779 0.742824
0.959548 0.922759 0.839765
0.995727 0.918990 0.833844
0.957092 0.686381 0.773053
0.000000 0.604746 0.724834
0.000000 0.604746 0.724834
0.000000 0.604746 0.724804
0.000000 0.604730 0.724743
0.000000 0.604669 0.724514
0.000000 0.604486 0.723781
0.000000 0.603922 0.721386
0.979492 0.940948 0.832303
0.998032 0.940352 0.826200
0.000000 0.489479 0.000000
0.000000 0.489479 0.000000
0.000000 0.489479 0.000000
0.000000 0.489479 0.000000
0.000000 0.489479 0.000000
0.000000 0.489479 0.000000
0.000000 0.489479 0.000000
0.000000 0.489479 0.000000
0.986099 0.940871 0.784253
0.000000 0.000000 0.491096
0.000000 0.000000 0.491096
0.000000 0.000000 0.491096
0.000000 0.000000 0.491096
0.000000 0.000000 0.491081
0.645411 0.000000 0.618799
0.754940 0.000000 0.635264
0.781613 0.000000 0.644114
0.786557 0.000000 0.645563
0.000000 0.000000 0.491096
0.000000 0.000000 0.491096
0.000000 0.000000 0.491096
0.000000 0.000000 0.491096
0.000000 0.000000 0.491081
0.644678 0.000000 0.618708
0.754894 0.000000 0.635248
0.781598 0.000000 0.644099
0.786557 0.000000 0.645563
0.000000 0.000000 0.491081
0.000000 0.000000 0.491081
0.000000 0.000000 0.491081
0.000000 0.000000 0.491066
0.000000 0.000000 0.491051
0.643137 0.000000 0.618494
0.754803 0.000000 0.635203
0.781582 0.000000 0.644083
0.786557 0.000000 0.645548
0.000000 0.000000 0.491035
0.000000 0.000000 0.491035
0.000000 0.000000 0.491020
0.000000 0.000000 0.491020
0.000000 0.000000 0.491005
0.637873 0.000000 0.617685
0.754498 0.000000 0.635065
0.781521 0.000000 0.644007
0.786526 0.000000 0.645487
0.000000 0.000000 0.490867
0.000000 0.000000 0.490867
0.000000 0.000000 0.490867
0.000000 0.000000 0.490867
0.000000 0.000000 0.490852
0.617960 0.000000 0.614557
0.753506 0.000000 0.634638
0.781338 0.000000 0.643778
0.786450 0.000000 0.645319
0.000000 0.000000 0.490349
0.000000 0.000000 0.490349
0.000000 0.000000 0.490349
0.000000 0.000000 0.490349
0.000000 0.000000 0.490333
0.499855 0.000000 0.596414
0.749432 0.000000 0.633280
0.780713 0.000000 0.643030
0.786206 0.000000 0.644770
0.000000 0.575540 0.763287
0.000000 0.575540 0.763272
0.000000 0.575509 0.763272
0.000000 0.575448 0.763241
0.000000 0.575250 0.763165
0.000000 0.574578 0.762890
0.942397 0.890440 0.867872
0.986130 0.871763 0.866468
0.785534 0.000000 0.643259
0.000000 0.609506 0.775341
0.000000 0.609506 0.775326
0.000000 0.609506 0.775326
0.000000 0.609491 0.775326
0.000000 0.609445 0.775296
0.000000 0.609308 0.775204
0.000000 0.608896 0.774914
0.992691 0.949676 0.876585
1.000000 0.948180 0.874296
0.000000 0.626307 0.776852
0.000000 0.626307 0.776852
0.000000 0.626307 0.776852
0.000000 0.626307 0.776837
0.000000 0.626307 0.776806
0.000000 0.626276 0.776730
0.000000 0.626215 0.776455
0.000000 0.625971 0.775540
0.996902 0.953475 0.875120
0.000000 0.000000 0.518868
0.000000 0.000000 0.518868
0.000000 0.000000 0.518868
0.000000 0.000000 0.518868
0.000000 0.000000 0.518868
0.000000 0.000000 0.518868
0.755917 0.000000 0.663218
0.798505 0.000000 0.674144
0.803769 0.000000 0.677531
0.000000 0.000000 0.518868
0.000000 0.000000 0.518868
0.000000 0.000000 0.518868
0.000000 0.000000 0.518868
0.000000 0.000000 0.518868
0.000000 0.000000 0.518868
0.755825 0.000000 0.663203
0.798489 0.000000 0.674144
0.803769 0.000000 0.677531
0.000000 0.000000 0.518868
0.000000 0.000000 0.518868
0.000000 0.000000 0.518868
0.000000 0.000000 0.518868
0.000000 0.000000 0.518868
0.000000 0.000000 0.518868
0.755596 0.000000 0.663157
0.798489 0.000000 0.674144
0.803769 0.000000 0.677531
0.000000 0.000000 0.518868
0.000000 0.000000 0.518868
0.000000 0.000000 0.518868
0.000000 0.000000 0.518868
0.000000 0.000000 0.518868
0.000000 0.000000 0.518868
0.754879 0.000000 0.663020
0.798459 0.000000 0.674128
0.803769 0.000000 0.677531
0.000000 0.000000 0.518868
0.000000 0.000000 0.518868
0.000000 0.000000 0.518868
0.000000 0.000000 0.518868
0.000000 0.000000 0.518868
0.000000 0.000000 0.518868
0.752514 0.000000 0.662562
0.798383 0.000000 0.674067
0.803769 0.000000 0.677531
0.000000 0.000000 0.518868
0.000000 0.000000 0.518868
0.000000 0.000000 0.518868
0.000000 0.000000 0.518868
0.000000 0.000000 0.518868
0.000000 0.000000 0.518868
0.743664 0.000000 0.660960
0.798123 0.000000 0.673884
0.803769 0.000000 0.677531
0.000000 0.000000 0.518868
0.000000 0.000000 0.518868
0.000000 0.000000 0.518868
0.000000 0.000000 0.518868
0.000000 0.000000 0.518868
0.000000 0.000000 0.518868
0.683009 0.000000 0.652506
0.797131 0.000000 0.673411
0.803769 0.000000 0.677531
0.000000 0.600107 0.774716
0.000000 0.600107 0.774716
0.000000 0.600107 0.774716
0.000000 0.600092 0.774716
0.000000 0.600061 0.774701
0.000000 0.599954 0.774639
0.000000 0.599603 0.774472
0.987640 0.940993 0.882048
0.997635 0.934920 0.880262
0.000000 0.630625 0.788815
0.000000 0.630625 0.788815
0.000000 0.630625 0.788815
0.000000 0.630625 0.788815
0.000000 0.630625 0.788815
0.000000 0.630625 0.788815
0.000000 0.630625 0.788815
0.000000 0.630625 0.788815
1.000000 0.954589 0.884855
