kimchi_v2_17.cube
LUT_3D_SIZE 5
TITLE "Kimchi v2 17"
0.028367 0.031357 0.034073
0.161639 0.048936 0.017792
0.534539 0.000000 0.000000
0.672633 0.000000 0.000000
0.683619 0.000000 0.000000
0.000000 0.107012 0.054032
0.047288 0.101518 0.050095
0.428458 0.152499 0.000000
0.633433 0.000000 0.000000
0.683619 0.000000 0.000000
0.000000 0.331365 0.000000
0.000000 0.302953 0.005814
0.185290 0.414221 0.000000
0.851484 0.565332 0.000000
0.669825 0.000000 0.000000
0.000000 0.448463 0.000000
0.000000 0.444251 0.000000
0.000000 0.435340 0.000000
0.000000 0.437125 0.000000
1.000000 0.838361 0.000000
0.000000 0.489479 0.000000
0.000000 0.489479 0.000000
0.000000 0.489479 0.000000
0.000000 0.485710 0.000000
0.000000 0.488823 0.000000
0.015488 0.028412 0.101518
0.135683 0.045624 0.113436
0.486854 0.000000 0.098970
0.660075 0.000000 0.000000
0.683619 0.000000 0.000000
0.000000 0.112123 0.130083
0.109194 0.132570 0.131563
0.536568 0.000000 0.021378
0.666133 0.000000 0.000000
0.683619 0.000000 0.000000
0.000000 0.329702 0.000000
0.000000 0.329213 0.000000
0.395392 0.454932 0.000000
0.887175 0.531655 0.000000
0.683619 0.000000 0.000000
0.000000 0.448432 0.000000
0.000000 0.448432 0.000000
0.000000 0.439231 0.000000
0.763577 0.783047 0.000000
1.000000 0.833738 0.000000
0.000000 0.489479 0.000000
0.000000 0.489479 0.000000
0.000000 0.489479 0.000000
0.000000 0.486076 0.000000
0.000000 0.487602 0.000000
0.000000 0.000000 0.315602
0.084443 0.000000 0.337591
0.512840 0.000000 0.394934
0.702617 0.000000 0.397726
0.683619 0.000000 0.000000
0.000000 0.000000 0.313848
0.000000 0.000000 0.322011
0.507332 0.000000 0.392172
0.703670 0.000000 0.395743
0.683619 0.000000 0.000000
0.000000 0.426108 0.501640
0.000000 0.425376 0.501076
0.646082 0.621103 0.544259
0.784665 0.114641 0.376608
0.683619 0.000000 0.000000
0.000000 0.448173 0.000000
0.000000 0.448173 0.000000
0.000000 0.448096 0.000000
0.901122 0.823850 0.000000
1.000000 0.825681 0.000000
0.000000 0.489479 0.000000
0.000000 0.489479 0.000000
0.000000 0.489479 0.000000
0.000000 0.489479 0.000000
1.000000 0.879301 0.000000
0.000000 0.000000 0.455039
0.000000 0.000000 0.455039
0.452354 0.000000 0.550195
0.736019 0.000000 0.593622
0.766888 0.000000 0.597131
0.000000 0.000000 0.454978
0.000000 0.000000 0.454978
0.440742 0.000000 0.548226
0.735882 0.000000 0.593530
0.766842 0.000000 0.597025
0.000000 0.000000 0.454398
0.000000 0.000000 0.454383
0.265034 0.000000 0.519402
0.734600 0.000000 0.592615
0.766583 0.000000 0.596201
0.000000 0.586389 0.743496
0.000000 0.586358 0.743481
0.000000 0.586191 0.743297
0.959548 0.922759 0.839765
0.957092 0.686381 0.773053
0.000000 0.489479 0.000000
0.000000 0.489479 0.000000
0.000000 0.489479 0.000000
0.000000 0.489479 0.000000
0.986099 0.940871 0.784253
0.000000 0.000000 0.518868
0.000000 0.000000 0.518868
0.000000 0.000000 0.518868
0.755917 0.000000 0.663218
0.803769 0.000000 0.677531
0.000000 0.000000 0.518868
0.000000 0.000000 0.518868
0.000000 0.000000 0.518868
0.755596 0.000000 0.663157
0.803769 0.000000 0.677531
0.000000 0.000000 0.518868
0.000000 0.000000 0.518868
0.000000 0.000000 0.518868
0.752514 0.000000 0.662562
0.803769 0.000000 0.677531
0.000000 0.000000 0.518868
0.000000 0.000000 0.518868
0.000000 0.000000 0.518868
0.683009 0.000000 0.652506
0.803769 0.000000 0.677531
0.000000 0.630625 0.788815
0.000000 0.630625 0.788815
0.000000 0.630625 0.788815
0.000000 0.630625 0.788815
1.000000 0.954589 0.884855
