kimchi_v2_17.cube
LUT_3D_SIZE 17
TITLE "Kimchi v2 17"
0.028367 0.031357 0.034073
0.039048 0.033585 0.035538
0.062867 0.037552 0.035248
0.097780 0.045594 0.032685
0.161639 0.048936 0.017792
0.241749 0.054337 0.000046
0.352514 0.045106 0.000000
0.449454 0.002930 0.000000
0.534539 0.000000 0.000000
0.592721 0.000000 0.000000
0.631876 0.000000 0.000000
0.656626 0.000000 0.000000
0.672633 0.000000 0.000000
0.683284 0.000000 0.000000
0.683619 0.000000 0.000000
0.683619 0.000000 0.000000
0.683619 0.000000 0.000000
0.024170 0.039643 0.035630
0.031861 0.040269 0.037324
0.045136 0.043275 0.037446
0.079194 0.049058 0.035737
0.129915 0.055451 0.028962
0.214801 0.057481 0.002167
0.312657 0.052857 0.000000
0.416220 0.017304 0.000000
0.510353 0.000000 0.000000
0.577890 0.000000 0.000000
0.622629 0.000000 0.000000
0.651408 0.000000 0.000000
0.669673 0.000000 0.000000
0.680858 0.000000 0.000000
0.683619 0.000000 0.000000
0.683619 0.000000 0.000000
0.683619 0.000000 0.000000
0.014984 0.052155 0.039597
0.026627 0.049958 0.040528
0.039582 0.052064 0.041718
0.060090 0.056245 0.041291
0.093904 0.063264 0.038376
0.173480 0.071305 0.027329
0.270939 0.074647 0.000015
0.376699 0.055207 0.000000
0.457374 0.001938 0.000000
0.545724 0.000000 0.000000
0.601984 0.000000 0.000000
0.639445 0.000000 0.000000
0.662425 0.000000 0.000000
0.676463 0.000000 0.000000
0.683619 0.000000 0.000000
0.683619 0.000000 0.000000
0.683619 0.000000 0.000000
0.000000 0.074174 0.043000
0.000198 0.072251 0.044541
0.007706 0.069902 0.045487
0.036591 0.074144 0.046204
0.080446 0.081743 0.044007
0.127825 0.092470 0.036530
0.224613 0.102953 0.007507
0.341436 0.105821 0.000000
0.450462 0.074250 0.000000
0.486763 0.000000 0.000000
0.570809 0.000000 0.000000
0.619394 0.000000 0.000000
0.650401 0.000000 0.000000
0.669688 0.000000 0.000000
0.681331 0.000000 0.000000
0.683619 0.000000 0.000000
0.683619 0.000000 0.000000
0.000000 0.107012 0.054032
0.000000 0.102266 0.053574
0.000000 0.093538 0.050095
0.000000 0.092042 0.051316
0.047288 0.101518 0.050095
0.110552 0.115923 0.042695
0.197711 0.131731 0.025528
0.298009 0.147219 0.000000
0.428458 0.152499 0.000000
0.537072 0.133181 0.000000
0.556893 0.000061 0.000000
0.591959 0.000000 0.000000
0.633433 0.000000 0.000000
0.658976 0.000000 0.000000
0.674830 0.000000 0.000000
0.683619 0.000000 0.000000
0.683619 0.000000 0.000000
0.000000 0.155535 0.057450
0.000000 0.152178 0.057343
0.000000 0.142504 0.056733
0.000000 0.132723 0.056092
0.000000 0.135332 0.056016
0.062211 0.155184 0.047028
0.169848 0.180255 0.021622
0.285908 0.205631 0.000000
0.402686 0.225162 0.000000
0.532265 0.232792 0.000000
0.628275 0.210071 0.000000
0.659464 0.121599 0.000000
0.610117 0.000000 0.000000
0.645014 0.000000 0.000000
0.666255 0.000000 0.000000
0.679072 0.000000 0.000000
0.683619 0.000000 0.000000
0.000000 0.209689 0.055863
0.000000 0.206836 0.056397
0.000000 0.197375 0.057145
0.000000 0.185718 0.057740
0.000000 0.178012 0.058122
0.000000 0.184176 0.057786
0.085557 0.222370 0.009796
0.258473 0.264118 0.000000
0.394308 0.298054 0.000000
0.532555 0.319936 0.000000
0.642420 0.328099 0.000000
0.724071 0.312886 0.000000
0.752667 0.248280 0.000000
0.616938 0.000000 0.000000
0.654398 0.000000 0.000000
0.672099 0.000000 0.000000
0.683528 0.000000 0.000000
0.000000 0.273625 0.032761
0.000000 0.271702 0.034699
0.000000 0.262928 0.039902
0.000000 0.249958 0.045274
0.000000 0.238163 0.050141
0.000000 0.232746 0.051576
0.000000 0.238895 0.050797
0.124681 0.313466 0.000000
0.358755 0.373098 0.000000
0.522286 0.411856 0.000000
0.658000 0.436255 0.000000
0.750423 0.442771 0.000000
0.814664 0.430152 0.000000
0.837369 0.378988 0.000000
0.777066 0.199130 0.000000
0.662577 0.000000 0.000000
0.676753 0.000000 0.000000
0.000000 0.331365 0.000000
0.000000 0.330205 0.000000
0.000000 0.323934 0.000839
0.000000 0.313787 0.003250
0.000000 0.302953 0.005814
0.000000 0.294499 0.011841
0.000000 0.291875 0.014466
0.000000 0.294362 0.011978
0.185290 0.414221 0.000000
0.471214 0.492592 0.000000
0.654597 0.535485 0.000000
0.771267 0.558358 0.000000
0.851484 0.565332 0.000000
0.895262 0.556085 0.000000
0.912291 0.521416 0.000000
0.884627 0.407721 0.000000
0.669825 0.000000 0.000000
0.000000 0.381659 0.000000
0.000000 0.381048 0.000000
0.000000 0.376745 0.000000
0.000000 0.368536 0.000000
0.000000 0.358862 0.000000
0.000000 0.349950 0.000000
0.000000 0.344289 0.000000
0.000000 0.343801 0.000000
0.000000 0.346212 0.000000
0.243732 0.501228 0.000000
0.590112 0.599786 0.000000
0.765301 0.643565 0.000000
0.867613 0.663111 0.000000
0.928130 0.669612 0.000000
0.959136 0.662867 0.000000
0.973632 0.643870 0.000000
0.962600 0.585885 0.000000
0.000000 0.415518 0.000000
0.000000 0.415290 0.000000
0.000000 0.413291 0.000000
0.000000 0.408789 0.000000
0.000000 0.403143 0.000000
0.000000 0.396948 0.000000
0.000000 0.390967 0.000000
0.000000 0.388006 0.000000
0.000000 0.388663 0.000000
0.000000 0.390539 0.000000
0.250370 0.568444 0.000000
0.699092 0.697017 0.000000
0.857832 0.736675 0.000000
0.942412 0.753841 0.000000
0.984649 0.758694 0.000000
0.997635 0.753597 0.000000
1.000000 0.741619 0.000000
0.000000 0.434989 0.000000
0.000000 0.434882 0.000000
0.000000 0.433768 0.000000
0.000000 0.431357 0.000000
0.000000 0.428168 0.000000
0.000000 0.424674 0.000000
0.000000 0.420844 0.000000
0.000000 0.418204 0.000000
0.000000 0.417243 0.000000
0.000000 0.417975 0.000000
0.000000 0.418997 0.000000
0.073564 0.576043 0.000000
0.783108 0.763912 0.000000
0.931014 0.798566 0.000000
0.991394 0.810880 0.000000
1.000000 0.808301 0.000000
1.000000 0.804578 0.000000
0.000000 0.448463 0.000000
0.000000 0.448432 0.000000
0.000000 0.447837 0.000000
0.000000 0.446342 0.000000
0.000000 0.444251 0.000000
0.000000 0.441886 0.000000
0.000000 0.439094 0.000000
0.000000 0.436759 0.000000
0.000000 0.435340 0.000000
0.000000 0.435050 0.000000
0.000000 0.435721 0.000000
0.000000 0.436454 0.000000
0.000000 0.437125 0.000000
0.846052 0.808026 0.000000
0.980316 0.839338 0.000000
1.000000 0.840558 0.000000
1.000000 0.838361 0.000000
0.000000 0.458854 0.000000
0.000000 0.458824 0.000000
0.000000 0.458122 0.000000
0.000000 0.456886 0.000000
0.000000 0.455222 0.000000
0.000000 0.453269 0.000000
0.000000 0.451377 0.000000
0.000000 0.449714 0.000000
0.000000 0.448478 0.000000
0.000000 0.447822 0.000000
0.000000 0.447837 0.000000
0.000000 0.448310 0.000000
0.000000 0.448783 0.000000
0.000000 0.449210 0.000000
0.891524 0.836667 0.000000
1.000000 0.860945 0.000000
1.000000 0.857710 0.000000
0.000000 0.474052 0.000000
0.000000 0.474037 0.000000
0.000000 0.473289 0.000000
0.000000 0.471641 0.000000
0.000000 0.469245 0.000000
0.000000 0.466346 0.000000
0.000000 0.463478 0.000000
0.000000 0.460960 0.000000
0.000000 0.458854 0.000000
0.000000 0.457527 0.000000
0.000000 0.457053 0.000000
0.000000 0.457267 0.000000
0.000000 0.457786 0.000000
0.000000 0.458427 0.000000
0.000000 0.459052 0.000000
0.916320 0.852476 0.000000
1.000000 0.869322 0.000000
0.000000 0.489479 0.000000
0.000000 0.489479 0.000000
0.000000 0.489479 0.000000
0.000000 0.488533 0.000000
0.000000 0.486305 0.000000
0.000000 0.483513 0.000000
0.000000 0.480385 0.000000
0.000000 0.477180 0.000000
0.000000 0.474296 0.000000
0.000000 0.472068 0.000000
0.000000 0.470710 0.000000
0.000000 0.470298 0.000000
0.000000 0.470863 0.000000
0.000000 0.471672 0.000000
0.000000 0.472465 0.000000
0.000000 0.473228 0.000000
0.904540 0.855512 0.000000
0.000000 0.489479 0.000000
0.000000 0.489479 0.000000
0.000000 0.489479 0.000000
0.000000 0.489479 0.000000
0.000000 0.489479 0.000000
0.000000 0.489479 0.000000
0.000000 0.489479 0.000000
0.000000 0.489479 0.000000
0.000000 0.489479 0.000000
0.000000 0.488746 0.000000
0.000000 0.486885 0.000000
0.000000 0.485832 0.000000
0.000000 0.485710 0.000000
0.000000 0.486427 0.000000
0.000000 0.487251 0.000000
0.000000 0.488060 0.000000
0.000000 0.488823 0.000000
0.027939 0.031189 0.039200
0.037400 0.033158 0.041215
0.059220 0.036927 0.041413
0.090166 0.043763 0.040330
0.154894 0.048173 0.033783
0.236027 0.048356 0.001816
0.345113 0.040116 0.000000
0.442313 0.001678 0.000000
0.527657 0.000000 0.000000
0.588540 0.000000 0.000000
0.629694 0.000000 0.000000
0.655268 0.000000 0.000000
0.671839 0.000000 0.000000
0.682643 0.000000 0.000000
0.683619 0.000000 0.000000
0.683619 0.000000 0.000000
0.683619 0.000000 0.000000
0.023835 0.038209 0.040238
0.031632 0.039033 0.041733
0.049012 0.042405 0.042268
0.090684 0.050202 0.040619
0.159976 0.054475 0.031418
0.240360 0.054185 0.000870
0.332311 0.039643 0.000000
0.437034 0.004440 0.000000
0.525322 0.000000 0.000000
0.586633 0.000000 0.000000
0.628168 0.000000 0.000000
0.654337 0.000000 0.000000
0.671199 0.000000 0.000000
0.682048 0.000000 0.000000
0.683619 0.000000 0.000000
0.683619 0.000000 0.000000
0.683619 0.000000 0.000000
0.015839 0.050080 0.043931
0.025422 0.050355 0.044694
0.041062 0.052888 0.045991
0.076615 0.058259 0.044846
0.119158 0.065766 0.040467
0.207401 0.069032 0.016739
0.309957 0.062562 0.000000
0.399756 0.048005 0.000000
0.495064 0.000000 0.000000
0.569421 0.000000 0.000000
0.617182 0.000000 0.000000
0.648035 0.000000 0.000000
0.667613 0.000000 0.000000
0.679423 0.000000 0.000000
0.683619 0.000000 0.000000
0.683619 0.000000 0.000000
0.683619 0.000000 0.000000
0.000000 0.075196 0.049683
0.000092 0.074632 0.049409
0.012558 0.073320 0.049607
0.049958 0.077821 0.050400
0.096330 0.085206 0.047776
0.149203 0.093553 0.040528
0.259205 0.100572 0.000458
0.382742 0.089265 0.000000
0.461082 0.032456 0.000000
0.529549 0.000000 0.000000
0.593011 0.000000 0.000000
0.633844 0.000000 0.000000
0.658991 0.000000 0.000000
0.674678 0.000000 0.000000
0.683619 0.000000 0.000000
0.683619 0.000000 0.000000
0.683619 0.000000 0.000000
0.000000 0.104829 0.054597
0.000000 0.104005 0.054429
0.000000 0.099947 0.054795
0.000153 0.096483 0.055283
0.069200 0.105241 0.054353
0.123384 0.118532 0.049058
0.213611 0.130999 0.022476
0.328115 0.144350 0.000000
0.470329 0.144823 0.000000
0.550759 0.088868 0.000000
0.556207 0.000000 0.000000
0.610636 0.000000 0.000000
0.645304 0.000000 0.000000
0.666499 0.000000 0.000000
0.679210 0.000000 0.000000
0.683619 0.000000 0.000000
0.683619 0.000000 0.000000
0.000000 0.153964 0.057404
0.000000 0.153536 0.057389
0.000000 0.148226 0.057099
0.000000 0.135821 0.056382
0.000000 0.136202 0.057542
0.087510 0.156954 0.047181
0.187488 0.179400 0.014221
0.299474 0.202152 0.000000
0.427573 0.222171 0.000000
0.562417 0.223392 0.000000
0.644984 0.178759 0.000000
0.611475 0.000000 0.000000
0.625620 0.000000 0.000000
0.654398 0.000000 0.000000
0.672129 0.000000 0.000000
0.683589 0.000000 0.000000
0.683619 0.000000 0.000000
0.000000 0.208591 0.056062
0.000000 0.208301 0.056123
0.000000 0.203967 0.056825
0.000000 0.191531 0.057450
0.000000 0.179019 0.058076
0.000000 0.186664 0.056275
0.118441 0.226276 0.002396
0.281117 0.266285 0.000000
0.415717 0.297978 0.000000
0.552193 0.317250 0.000000
0.661707 0.320867 0.000000
0.736599 0.292866 0.000000
0.732387 0.175860 0.000000
0.638148 0.000000 0.000000
0.662257 0.000000 0.000000
0.676661 0.000000 0.000000
0.683619 0.000000 0.000000
0.000000 0.273030 0.033356
0.000000 0.272877 0.033524
0.000000 0.269947 0.036454
0.000000 0.258122 0.041886
0.000000 0.242908 0.048188
0.000000 0.232715 0.051576
0.000000 0.244892 0.044328
0.182681 0.321798 0.000000
0.385946 0.376516 0.000000
0.546487 0.412329 0.000000
0.674113 0.433524 0.000000
0.763439 0.436057 0.000000
0.822568 0.414527 0.000000
0.828214 0.337438 0.000000
0.648707 0.000000 0.000000
0.668956 0.000000 0.000000
0.680934 0.000000 0.000000
0.000000 0.331075 0.000000
0.000000 0.330999 0.000000
0.000000 0.329244 0.000000
0.000000 0.321004 0.001526
0.000000 0.308797 0.004425
0.000000 0.297322 0.009018
0.000000 0.291188 0.015152
0.000000 0.298116 0.012940
0.262547 0.429191 0.000000
0.505425 0.497871 0.000000
0.677241 0.537270 0.000000
0.785595 0.556664 0.000000
0.860014 0.560143 0.000000
0.899046 0.545205 0.000000
0.907805 0.494575 0.000000
0.836957 0.299977 0.000000
0.674174 0.000000 0.000000
0.000000 0.381537 0.000000
0.000000 0.381506 0.000000
0.000000 0.380575 0.000000
0.000000 0.374807 0.000000
0.000000 0.364904 0.000000
0.000000 0.354238 0.000000
0.000000 0.345663 0.000000
0.000000 0.342870 0.000000
0.000000 0.345006 0.000000
0.336507 0.525475 0.000000
0.629419 0.607004 0.000000
0.784024 0.644800 0.000000
0.879332 0.661768 0.000000
0.933501 0.665492 0.000000
0.961242 0.656031 0.000000
0.971756 0.629816 0.000000
0.943496 0.532601 0.000000
0.000000 0.415488 0.000000
0.000000 0.415473 0.000000
0.000000 0.415122 0.000000
0.000000 0.412406 0.000000
0.000000 0.407004 0.000000
0.000000 0.400610 0.000000
0.000000 0.393347 0.000000
0.000000 0.388464 0.000000
0.000000 0.387839 0.000000
0.000000 0.389685 0.000000
0.391760 0.607904 0.000000
0.735805 0.704875 0.000000
0.876051 0.738369 0.000000
0.951247 0.753094 0.000000
0.988785 0.755932 0.000000
0.999420 0.749554 0.000000
1.000000 0.734173 0.000000
0.000000 0.434974 0.000000
0.000000 0.434974 0.000000
0.000000 0.434806 0.000000
0.000000 0.433371 0.000000
0.000000 0.430488 0.000000
0.000000 0.426841 0.000000
0.000000 0.422721 0.000000
0.000000 0.419104 0.000000
0.000000 0.417258 0.000000
0.000000 0.417548 0.000000
0.000000 0.418570 0.000000
0.401923 0.652598 0.000000
0.818570 0.771923 0.000000
0.944686 0.800397 0.000000
0.993805 0.809506 0.000000
1.000000 0.806424 0.000000
1.000000 0.802350 0.000000
0.000000 0.448463 0.000000
0.000000 0.448463 0.000000
0.000000 0.448386 0.000000
0.000000 0.447639 0.000000
0.000000 0.445838 0.000000
0.000000 0.443442 0.000000
0.000000 0.440681 0.000000
0.000000 0.437781 0.000000
0.000000 0.435737 0.000000
0.000000 0.434943 0.000000
0.000000 0.435431 0.000000
0.000000 0.436149 0.000000
0.236515 0.631876 0.000000
0.883452 0.816236 0.000000
0.990066 0.840696 0.000000
1.000000 0.839139 0.000000
1.000000 0.837278 0.000000
0.000000 0.458854 0.000000
0.000000 0.458854 0.000000
0.000000 0.458793 0.000000
0.000000 0.457908 0.000000
0.000000 0.456535 0.000000
0.000000 0.454627 0.000000
0.000000 0.452491 0.000000
0.000000 0.450553 0.000000
0.000000 0.448951 0.000000
0.000000 0.447959 0.000000
0.000000 0.447715 0.000000
0.000000 0.448142 0.000000
0.000000 0.448600 0.000000
0.000000 0.449027 0.000000
0.931823 0.845823 0.000000
1.000000 0.859571 0.000000
1.000000 0.857099 0.000000
0.000000 0.474052 0.000000
0.000000 0.474052 0.000000
0.000000 0.474006 0.000000
0.000000 0.473091 0.000000
0.000000 0.471168 0.000000
0.000000 0.468452 0.000000
0.000000 0.465232 0.000000
0.000000 0.462348 0.000000
0.000000 0.459815 0.000000
0.000000 0.457908 0.000000
0.000000 0.457099 0.000000
0.000000 0.457099 0.000000
0.000000 0.457603 0.000000
0.000000 0.458183 0.000000
0.000000 0.458793 0.000000
0.963043 0.863523 0.000000
1.000000 0.868482 0.000000
0.000000 0.489479 0.000000
0.000000 0.489479 0.000000
0.000000 0.489479 0.000000
0.000000 0.489479 0.000000
0.000000 0.488136 0.000000
0.000000 0.485588 0.000000
0.000000 0.482490 0.000000
0.000000 0.479088 0.000000
0.000000 0.475776 0.000000
0.000000 0.472984 0.000000
0.000000 0.471107 0.000000
0.000000 0.470283 0.000000
0.000000 0.470573 0.000000
0.000000 0.471397 0.000000
0.000000 0.472175 0.000000
0.000000 0.472923 0.000000
0.976501 0.873045 0.000000
0.000000 0.489479 0.000000
0.000000 0.489479 0.000000
0.000000 0.489479 0.000000
0.000000 0.489479 0.000000
0.000000 0.489479 0.000000
0.000000 0.489479 0.000000
0.000000 0.489479 0.000000
0.000000 0.489479 0.000000
0.000000 0.489479 0.000000
0.000000 0.489479 0.000000
0.000000 0.487587 0.000000
0.000000 0.486091 0.000000
0.000000 0.485603 0.000000
0.000000 0.486137 0.000000
0.000000 0.486961 0.000000
0.000000 0.487770 0.000000
0.000000 0.488518 0.000000
0.027283 0.031022 0.047990
0.035828 0.032700 0.050202
0.055924 0.036973 0.050889
0.085176 0.042344 0.050782
0.138125 0.047135 0.047700
0.215854 0.051453 0.038056
0.317113 0.016907 0.000000
0.425864 0.000275 0.000000
0.514916 0.000000 0.000000
0.575784 0.000000 0.000000
0.620920 0.000000 0.000000
0.650248 0.000000 0.000000
0.669062 0.000000 0.000000
0.680354 0.000000 0.000000
0.683619 0.000000 0.000000
0.683619 0.000000 0.000000
0.683619 0.000000 0.000000
0.023774 0.036942 0.048570
0.030457 0.037812 0.050034
0.045533 0.041932 0.051499
0.086763 0.048432 0.051240
0.148775 0.053941 0.046921
0.229725 0.052247 0.032685
0.330526 0.015595 0.000000
0.436759 0.000198 0.000000
0.521614 0.000000 0.000000
0.582269 0.000000 0.000000
0.625376 0.000000 0.000000
0.652964 0.000000 0.000000
0.670405 0.000000 0.000000
0.681422 0.000000 0.000000
0.683619 0.000000 0.000000
0.683619 0.000000 0.000000
0.683619 0.000000 0.000000
0.013336 0.049607 0.053086
0.022446 0.049561 0.053574
0.040238 0.052888 0.055024
0.086534 0.059602 0.054719
0.149828 0.066712 0.049958
0.241260 0.064012 0.029496
0.343633 0.037949 0.000061
0.432197 0.002808 0.000000
0.516686 0.000000 0.000000
0.580484 0.000000 0.000000
0.623865 0.000000 0.000000
0.651865 0.000000 0.000000
0.669764 0.000000 0.000000
0.680827 0.000000 0.000000
0.683619 0.000000 0.000000
0.683619 0.000000 0.000000
0.683619 0.000000 0.000000
0.000000 0.075303 0.059419
0.000000 0.074556 0.059037
0.005951 0.076142 0.059159
0.066636 0.081941 0.059709
0.117235 0.090639 0.056657
0.201862 0.095842 0.043549
0.309194 0.091813 0.000015
0.424201 0.063828 0.000000
0.467720 0.000000 0.000000
0.558892 0.000000 0.000000
0.610956 0.000000 0.000000
0.644495 0.000000 0.000000
0.665217 0.000000 0.000000
0.677974 0.000000 0.000000
0.683619 0.000000 0.000000
0.683619 0.000000 0.000000
0.683619 0.000000 0.000000
0.000000 0.106325 0.061250
0.000000 0.105669 0.060960
0.000000 0.105455 0.060807
0.000351 0.105440 0.062058
0.095949 0.115343 0.060746
0.155306 0.125307 0.054612
0.242969 0.133242 0.027939
0.382544 0.144045 0.000000
0.507561 0.127199 0.000000
0.542123 0.000015 0.000000
0.581659 0.000000 0.000000
0.627375 0.000000 0.000000
0.655177 0.000000 0.000000
0.672435 0.000000 0.000000
0.683619 0.000000 0.000000
0.683619 0.000000 0.000000
0.683619 0.000000 0.000000
0.000000 0.153872 0.059129
0.000000 0.153338 0.058976
0.000000 0.152789 0.058839
0.000000 0.146731 0.060151
0.000000 0.147753 0.062211
0.108766 0.166369 0.052644
0.209339 0.183536 0.018585
0.322698 0.205692 0.000015
0.467216 0.218463 0.000000
0.594537 0.206027 0.000000
0.648630 0.131685 0.000000
0.599817 0.000000 0.000000
0.639124 0.000000 0.000000
0.662821 0.000000 0.000000
0.677043 0.000000 0.000000
0.683619 0.000000 0.000000
0.683619 0.000000 0.000000
0.000000 0.207492 0.056275
0.000000 0.207187 0.056336
0.000000 0.206897 0.056382
0.000000 0.200015 0.057023
0.000000 0.180148 0.056382
0.000015 0.192828 0.056687
0.146456 0.230564 0.001724
0.300237 0.265782 0.000000
0.437354 0.297002 0.000000
0.577386 0.314351 0.000000
0.686320 0.310582 0.000000
0.742321 0.259724 0.000000
0.659327 0.000000 0.000000
0.648890 0.000000 0.000000
0.669169 0.000000 0.000000
0.681132 0.000000 0.000000
0.683619 0.000000 0.000000
0.000000 0.272435 0.033967
0.000000 0.272267 0.034119
0.000000 0.272114 0.034287
0.000000 0.267308 0.038087
0.000000 0.251164 0.044770
0.000000 0.234653 0.051209
0.000000 0.255085 0.028367
0.227802 0.328527 0.000000
0.411414 0.379309 0.000000
0.570245 0.412345 0.000000
0.690044 0.429999 0.000000
0.779568 0.427329 0.000000
0.827024 0.390127 0.000000
0.801312 0.265171 0.000000
0.657252 0.000000 0.000000
0.674098 0.000000 0.000000
0.683619 0.000000 0.000000
0.000000 0.330785 0.000000
0.000000 0.330709 0.000000
0.000000 0.330632 0.000000
0.000000 0.327886 0.000000
0.000000 0.316793 0.002533
0.000000 0.302358 0.005951
0.000000 0.291524 0.014832
0.000000 0.319005 0.003250
0.315862 0.441398 0.000000
0.537102 0.501915 0.000000
0.696056 0.537636 0.000000
0.799008 0.553735 0.000000
0.867613 0.553735 0.000000
0.901854 0.530083 0.000000
0.896345 0.449973 0.000000
0.664652 0.000000 0.000000
0.678218 0.000000 0.000000
0.000000 0.381415 0.000000
0.000000 0.381384 0.000000
0.000000 0.381353 0.000000
0.000000 0.379904 0.000000
0.000000 0.372091 0.000000
0.000000 0.360143 0.000000
0.000000 0.348547 0.000000
0.000000 0.342397 0.000000
0.000000 0.347906 0.000000
0.403388 0.543786 0.000000
0.662287 0.612558 0.000000
0.802045 0.645670 0.000000
0.890883 0.660014 0.000000
0.938735 0.660639 0.000000
0.963897 0.647334 0.000000
0.966995 0.608637 0.000000
0.897566 0.413642 0.000000
0.000000 0.415442 0.000000
0.000000 0.415427 0.000000
0.000000 0.415427 0.000000
0.000000 0.414878 0.000000
0.000000 0.411185 0.000000
0.000000 0.404654 0.000000
0.000000 0.397040 0.000000
0.000000 0.389700 0.000000
0.000000 0.387167 0.000000
0.000000 0.388785 0.000000
0.481346 0.633829 0.000000
0.766186 0.710979 0.000000
0.891035 0.739223 0.000000
0.957946 0.751583 0.000000
0.990341 0.752361 0.000000
1.000000 0.744625 0.000000
0.999832 0.723186 0.000000
0.000000 0.434958 0.000000
0.000000 0.434958 0.000000
0.000000 0.434943 0.000000
0.000000 0.434684 0.000000
0.000000 0.432807 0.000000
0.000000 0.429343 0.000000
0.000000 0.425208 0.000000
0.000000 0.420554 0.000000
0.000000 0.417563 0.000000
0.000000 0.417090 0.000000
0.000000 0.418097 0.000000
0.536599 0.692866 0.000000
0.848859 0.778119 0.000000
0.956466 0.801801 0.000000
0.997589 0.808438 0.000000
1.000000 0.804318 0.000000
1.000000 0.799878 0.000000
0.000000 0.448463 0.000000
0.000000 0.448463 0.000000
0.000000 0.448447 0.000000
0.000000 0.448341 0.000000
0.000000 0.447333 0.000000
0.000000 0.445182 0.000000
0.000000 0.442451 0.000000
0.000000 0.439200 0.000000
0.000000 0.436439 0.000000
0.000000 0.434974 0.000000
0.000000 0.435142 0.000000
0.000000 0.435843 0.000000
0.538140 0.719265 0.000000
0.913130 0.822324 0.000000
0.998520 0.841550 0.000000
1.000000 0.837949 0.000000
1.000000 0.836179 0.000000
0.000000 0.458854 0.000000
0.000000 0.458854 0.000000
0.000000 0.458854 0.000000
0.000000 0.458747 0.000000
0.000000 0.457694 0.000000
0.000000 0.456077 0.000000
0.000000 0.453895 0.000000
0.000000 0.451621 0.000000
0.000000 0.449653 0.000000
0.000000 0.448234 0.000000
0.000000 0.447639 0.000000
0.000000 0.447959 0.000000
0.000000 0.448417 0.000000
0.360662 0.679057 0.000000
0.960143 0.852186 0.000000
1.000000 0.858549 0.000000
1.000000 0.856489 0.000000
0.000000 0.474052 0.000000
0.000000 0.474052 0.000000
0.000000 0.474052 0.000000
0.000000 0.473976 0.000000
0.000000 0.472831 0.000000
0.000000 0.470588 0.000000
0.000000 0.467475 0.000000
0.000000 0.464042 0.000000
0.000000 0.461082 0.000000
0.000000 0.458640 0.000000
0.000000 0.457282 0.000000
0.000000 0.456962 0.000000
0.000000 0.457404 0.000000
0.000000 0.457923 0.000000
0.000000 0.458534 0.000000
0.988846 0.869490 0.000000
1.000000 0.867811 0.000000
0.000000 0.489479 0.000000
0.000000 0.489479 0.000000
0.000000 0.489479 0.000000
0.000000 0.489479 0.000000
0.000000 0.489479 0.000000
0.000000 0.487633 0.000000
0.000000 0.484733 0.000000
0.000000 0.481300 0.000000
0.000000 0.477592 0.000000
0.000000 0.474250 0.000000
0.000000 0.471748 0.000000
0.000000 0.470405 0.000000
0.000000 0.470314 0.000000
0.000000 0.471107 0.000000
0.000000 0.471885 0.000000
0.000000 0.472602 0.000000
0.999466 0.877806 0.000000
0.000000 0.489479 0.000000
0.000000 0.489479 0.000000
0.000000 0.489479 0.000000
0.000000 0.489479 0.000000
0.000000 0.489479 0.000000
0.000000 0.489479 0.000000
0.000000 0.489479 0.000000
0.000000 0.489479 0.000000
0.000000 0.489479 0.000000
0.000000 0.489479 0.000000
0.000000 0.488563 0.000000
0.000000 0.486534 0.000000
0.000000 0.485603 0.000000
0.000000 0.485863 0.000000
0.000000 0.486686 0.000000
0.000000 0.487465 0.000000
0.000000 0.488212 0.000000
0.026902 0.028855 0.070268
0.036500 0.029831 0.072236
0.052705 0.033753 0.074037
0.083421 0.039536 0.074968
0.137179 0.048539 0.076738
0.205173 0.050751 0.073426
0.294697 0.024170 0.063203
0.404562 0.000000 0.036118
0.499779 0.000000 0.000000
0.570916 0.000000 0.000000
0.610742 0.000000 0.000000
0.643992 0.000000 0.000000
0.664729 0.000000 0.000000
0.677638 0.000000 0.000000
0.683619 0.000000 0.000000
0.683619 0.000000 0.000000
0.683619 0.000000 0.000000
0.019883 0.033707 0.070787
0.030777 0.034974 0.071992
0.045106 0.039109 0.074159
