output.cube
TITLE AlexaLogC->R709
LUT_3D_SIZE 5
0.000000 0.000000 0.000000
0.203324 0.000000 0.002933
0.718475 0.000000 0.039101
1.000000 0.000000 0.102639
1.000000 0.000000 0.111437
0.000000 0.187683 0.000000
0.171065 0.185728 0.000000
0.712610 0.139785 0.009775
1.000000 0.000000 0.082111
1.000000 0.000000 0.092864
0.000000 0.675464 0.000000
0.000000 0.675464 0.000000
0.629521 0.668622 0.000000
1.000000 0.652981 0.000000
1.000000 0.650049 0.000000
0.000000 1.000000 0.000000
0.000000 1.000000 0.000000
0.350929 1.000000 0.000000
0.987292 1.000000 0.000000
1.000000 1.000000 0.000000
0.000000 1.000000 0.000000
0.000000 1.000000 0.000000
0.252199 1.000000 0.000000
0.968719 1.000000 0.000000
1.000000 1.000000 0.000000
0.000000 0.000000 0.173021
0.197458 0.000000 0.173998
0.717498 0.000000 0.187683
1.000000 0.000000 0.212121
1.000000 0.000000 0.216031
0.000000 0.166178 0.162268
0.163245 0.163245 0.163245
0.711632 0.108504 0.176931
1.000000 0.000000 0.203324
1.000000 0.000000 0.207234
0.000000 0.672532 0.000000
0.000000 0.671554 0.000000
0.627566 0.664712 0.000000
1.000000 0.649071 0.000000
1.000000 0.646139 0.000000
0.000000 1.000000 0.000000
0.000000 1.000000 0.000000
0.347996 1.000000 0.000000
0.986315 1.000000 0.000000
1.000000 1.000000 0.000000
0.000000 1.000000 0.000000
0.000000 1.000000 0.000000
0.247312 1.000000 0.000000
0.968719 1.000000 0.000000
1.000000 1.000000 0.000000
0.000000 0.000000 0.636364
0.051808 0.000000 0.636364
0.700880 0.000000 0.638319
1.000000 0.000000 0.644184
1.000000 0.000000 0.645161
0.000000 0.000000 0.634409
0.000000 0.000000 0.634409
0.695992 0.000000 0.636364
1.000000 0.000000 0.642229
1.000000 0.000000 0.643206
0.000000 0.616813 0.605083
0.000000 0.615836 0.606061
0.608016 0.608016 0.608016
1.000000 0.590420 0.613881
1.000000 0.587488 0.614858
0.000000 1.000000 0.536657
0.000000 1.000000 0.537634
0.298143 1.000000 0.540567
0.976540 1.000000 0.546432
1.000000 1.000000 0.548387
0.000000 1.000000 0.522972
0.000000 1.000000 0.522972
0.160313 1.000000 0.526882
0.957967 1.000000 0.533724
1.000000 1.000000 0.534702
0.000000 0.000000 0.997067
0.000000 0.000000 0.997067
0.665689 0.000000 0.998045
1.000000 0.000000 1.000000
1.000000 0.000000 1.000000
0.000000 0.000000 0.996090
0.000000 0.000000 0.996090
0.658847 0.000000 0.997067
1.000000 0.000000 1.000000
1.000000 0.000000 1.000000
0.000000 0.466276 0.982405
0.000000 0.465298 0.982405
0.563050 0.452590 0.983382
1.000000 0.425220 0.986315
1.000000 0.419355 0.986315
0.000000 0.968719 0.951124
0.000000 0.967742 0.951124
0.121212 0.963832 0.953079
0.955034 0.955034 0.955034
1.000000 0.954057 0.956012
0.000000 1.000000 0.945259
0.000000 1.000000 0.945259
0.000000 1.000000 0.947214
0.936461 1.000000 0.950147
1.000000 1.000000 0.950147
0.000000 0.000000 1.000000
0.000000 0.000000 1.000000
0.657869 0.000000 1.000000
1.000000 0.000000 1.000000
1.000000 0.000000 1.000000
0.000000 0.000000 1.000000
0.000000 0.000000 1.000000
0.652004 0.000000 1.000000
1.000000 0.000000 1.000000
1.000000 0.000000 1.000000
0.000000 0.430108 1.000000
0.000000 0.429130 1.000000
0.554252 0.415445 1.000000
1.000000 0.384164 1.000000
1.000000 0.377322 1.000000
0.000000 0.956989 1.000000
0.000000 0.956989 1.000000
0.040078 0.953079 1.000000
0.951124 0.944282 1.000000
1.000000 0.942326 1.000000
0.000000 1.000000 0.996090
0.000000 1.000000 0.996090
0.000000 1.000000 0.997067
0.932551 1.000000 0.999022
1.000000 1.000000 1.000000
