output.cube
TITLE AlexaLogC->R709
LUT_3D_SIZE 17
0.000000 0.000000 0.000000
0.037146 0.000000 0.000000
0.082111 0.000000 0.000978
0.133920 0.000000 0.000978
0.203324 0.000000 0.002933
0.306940 0.000000 0.005865
0.441838 0.000000 0.012708
0.580645 0.000000 0.023460
0.718475 0.000000 0.039101
0.851417 0.000000 0.058651
0.975562 0.000000 0.079179
1.000000 0.000000 0.093842
1.000000 0.000000 0.102639
1.000000 0.000000 0.107527
1.000000 0.000000 0.109482
1.000000 0.000000 0.109482
1.000000 0.000000 0.111437
0.000000 0.032258 0.000000
0.027370 0.031281 0.000000
0.074291 0.030303 0.000000
0.128055 0.028348 0.000000
0.200391 0.024438 0.000000
0.304985 0.014663 0.002933
0.440860 0.000000 0.009775
0.580645 0.000000 0.020528
0.717498 0.000000 0.036168
0.850440 0.000000 0.055718
0.975562 0.000000 0.076246
1.000000 0.000000 0.091887
1.000000 0.000000 0.100684
1.000000 0.000000 0.105572
1.000000 0.000000 0.107527
1.000000 0.000000 0.108504
1.000000 0.000000 0.109482
0.000000 0.072336 0.000000
0.014663 0.072336 0.000000
0.062561 0.071359 0.000000
0.121212 0.069404 0.000000
0.196481 0.065494 0.000000
0.303030 0.056696 0.000000
0.438905 0.035191 0.005865
0.579668 0.000978 0.016618
0.717498 0.000000 0.032258
0.850440 0.000000 0.051808
0.974585 0.000000 0.073314
1.000000 0.000000 0.088954
1.000000 0.000000 0.097752
1.000000 0.000000 0.102639
1.000000 0.000000 0.104594
1.000000 0.000000 0.105572
1.000000 0.000000 0.106549
0.000000 0.121212 0.000000
0.000000 0.121212 0.000000
0.040078 0.120235 0.000000
0.108504 0.119257 0.000000
0.188661 0.117302 0.000000
0.298143 0.111437 0.000000
0.436950 0.097752 0.000000
0.577713 0.072336 0.009775
0.715542 0.026393 0.024438
0.849462 0.000000 0.044966
0.974585 0.000000 0.067449
1.000000 0.000000 0.084066
1.000000 0.000000 0.092864
1.000000 0.000000 0.098729
1.000000 0.000000 0.100684
1.000000 0.000000 0.101662
1.000000 0.000000 0.102639
0.000000 0.187683 0.000000
0.000000 0.187683 0.000000
0.000000 0.187683 0.000000
0.074291 0.186706 0.000000
0.171065 0.185728 0.000000
0.288368 0.181818 0.000000
0.431085 0.173998 0.000000
0.573803 0.160313 0.000000
0.712610 0.139785 0.009775
0.847507 0.106549 0.029326
0.972630 0.048876 0.052786
1.000000 0.000000 0.071359
1.000000 0.000000 0.082111
1.000000 0.000000 0.087977
1.000000 0.000000 0.089932
1.000000 0.000000 0.090909
1.000000 0.000000 0.092864
0.000000 0.286413 0.000000
0.000000 0.286413 0.000000
0.000000 0.285435 0.000000
0.000000 0.285435 0.000000
0.117302 0.284457 0.000000
0.262952 0.282502 0.000000
0.416422 0.277615 0.000000
0.564027 0.270772 0.000000
0.706745 0.260020 0.000000
0.841642 0.244379 0.000000
0.968719 0.225806 0.016618
1.000000 0.207234 0.037146
1.000000 0.193548 0.050831
1.000000 0.185728 0.057674
1.000000 0.181818 0.061584
1.000000 0.180841 0.062561
1.000000 0.178886 0.063539
0.000000 0.413490 0.000000
0.000000 0.413490 0.000000
0.000000 0.413490 0.000000
0.000000 0.413490 0.000000
0.000000 0.412512 0.000000
0.194526 0.411535 0.000000
0.383187 0.408602 0.000000
0.543500 0.404692 0.000000
0.691105 0.397849 0.000000
0.830890 0.390029 0.000000
0.958944 0.379277 0.000000
1.000000 0.370479 0.000000
1.000000 0.364614 0.000000
1.000000 0.360704 0.000000
1.000000 0.359726 0.000000
1.000000 0.358749 0.000000
1.000000 0.357771 0.000000
0.000000 0.545455 0.000000
0.000000 0.545455 0.000000
0.000000 0.545455 0.000000
0.000000 0.545455 0.000000
0.000000 0.544477 0.000000
0.000000 0.544477 0.000000
0.318671 0.542522 0.000000
0.507331 0.539589 0.000000
0.666667 0.535679 0.000000
0.812317 0.529814 0.000000
0.944282 0.522972 0.000000
1.000000 0.518084 0.000000
1.000000 0.514174 0.000000
1.000000 0.511241 0.000000
1.000000 0.510264 0.000000
1.000000 0.510264 0.000000
1.000000 0.510264 0.000000
0.000000 0.675464 0.000000
0.000000 0.675464 0.000000
0.000000 0.675464 0.000000
0.000000 0.675464 0.000000
0.000000 0.675464 0.000000
0.000000 0.674487 0.000000
0.180841 0.673509 0.000000
0.448680 0.671554 0.000000
0.629521 0.668622 0.000000
0.784946 0.664712 0.000000
0.923754 0.659824 0.000000
1.000000 0.655914 0.000000
1.000000 0.652981 0.000000
1.000000 0.651026 0.000000
1.000000 0.651026 0.000000
1.000000 0.651026 0.000000
1.000000 0.650049 0.000000
0.000000 0.801564 0.000000
0.000000 0.801564 0.000000
0.000000 0.801564 0.000000
0.000000 0.801564 0.000000
0.000000 0.801564 0.000000
0.000000 0.800587 0.000000
0.000000 0.799609 0.000000
0.352884 0.798631 0.000000
0.575758 0.795699 0.000000
0.747801 0.792766 0.000000
0.894428 0.789834 0.000000
0.996090 0.786901 0.000000
1.000000 0.783969 0.000000
1.000000 0.782991 0.000000
1.000000 0.782991 0.000000
1.000000 0.782991 0.000000
1.000000 0.782014 0.000000
0.000000 0.919844 0.000000
0.000000 0.919844 0.000000
0.000000 0.919844 0.000000
0.000000 0.919844 0.000000
0.000000 0.919844 0.000000
0.000000 0.918866 0.000000
0.000000 0.917889 0.000000
0.139785 0.916911 0.000000
0.500489 0.914956 0.000000
0.699902 0.913001 0.000000
0.858260 0.910068 0.000000
0.965787 0.907136 0.000000
1.000000 0.906158 0.000000
1.000000 0.905181 0.000000
1.000000 0.904203 0.000000
1.000000 0.904203 0.000000
1.000000 0.904203 0.000000
0.000000 1.000000 0.000000
0.000000 1.000000 0.000000
0.000000 1.000000 0.000000
0.000000 1.000000 0.000000
0.000000 1.000000 0.000000
0.000000 1.000000 0.000000
0.000000 1.000000 0.000000
0.000000 1.000000 0.000000
0.420332 1.000000 0.000000
0.653959 0.999022 0.000000
0.826002 0.996090 0.000000
0.938416 0.994135 0.000000
1.000000 0.992180 0.000000
1.000000 0.992180 0.000000
1.000000 0.991202 0.000000
1.000000 0.991202 0.000000
1.000000 0.991202 0.000000
0.000000 1.000000 0.000000
0.000000 1.000000 0.000000
0.000000 1.000000 0.000000
0.000000 1.000000 0.000000
0.000000 1.000000 0.000000
0.000000 1.000000 0.000000
0.000000 1.000000 0.000000
0.000000 1.000000 0.000000
0.350929 1.000000 0.000000
0.619746 1.000000 0.000000
0.802542 1.000000 0.000000
0.919844 1.000000 0.000000
0.987292 1.000000 0.000000
1.000000 1.000000 0.000000
1.000000 1.000000 0.000000
1.000000 1.000000 0.000000
1.000000 1.000000 0.000000
0.000000 1.000000 0.000000
0.000000 1.000000 0.000000
0.000000 1.000000 0.000000
0.000000 1.000000 0.000000
0.000000 1.000000 0.000000
0.000000 1.000000 0.000000
0.000000 1.000000 0.000000
0.000000 1.000000 0.000000
0.303030 1.000000 0.000000
0.600196 1.000000 0.000000
0.789834 1.000000 0.000000
0.909091 1.000000 0.000000
0.977517 1.000000 0.000000
1.000000 1.000000 0.000000
1.000000 1.000000 0.000000
1.000000 1.000000 0.000000
1.000000 1.000000 0.000000
0.000000 1.000000 0.000000
0.000000 1.000000 0.000000
0.000000 1.000000 0.000000
0.000000 1.000000 0.000000
0.000000 1.000000 0.000000
0.000000 1.000000 0.000000
0.000000 1.000000 0.000000
0.000000 1.000000 0.000000
0.279570 1.000000 0.000000
0.591398 1.000000 0.000000
0.783969 1.000000 0.000000
0.904203 1.000000 0.000000
0.973607 1.000000 0.000000
1.000000 1.000000 0.000000
1.000000 1.000000 0.000000
1.000000 1.000000 0.000000
1.000000 1.000000 0.000000
0.000000 1.000000 0.000000
0.000000 1.000000 0.000000
0.000000 1.000000 0.000000
0.000000 1.000000 0.000000
0.000000 1.000000 0.000000
0.000000 1.000000 0.000000
0.000000 1.000000 0.000000
0.000000 1.000000 0.000000
0.268817 1.000000 0.000000
0.588465 1.000000 0.000000
0.781036 1.000000 0.000000
0.902248 1.000000 0.000000
0.971652 1.000000 0.000000
1.000000 1.000000 0.000000
1.000000 1.000000 0.000000
1.000000 1.000000 0.000000
1.000000 1.000000 0.000000
0.000000 1.000000 0.000000
0.000000 1.000000 0.000000
0.000000 1.000000 0.000000
0.000000 1.000000 0.000000
0.000000 1.000000 0.000000
0.000000 1.000000 0.000000
0.000000 1.000000 0.000000
0.000000 1.000000 0.000000
0.252199 1.000000 0.000000
0.582600 1.000000 0.000000
0.778104 1.000000 0.000000
0.899316 1.000000 0.000000
0.968719 1.000000 0.000000
1.000000 1.000000 0.000000
1.000000 1.000000 0.000000
1.000000 1.000000 0.000000
1.000000 1.000000 0.000000
0.000000 0.000000 0.028348
0.035191 0.000000 0.028348
0.080156 0.000000 0.028348
0.132942 0.000000 0.029326
0.203324 0.000000 0.030303
0.306940 0.000000 0.033236
0.441838 0.000000 0.041056
0.580645 0.000000 0.051808
0.718475 0.000000 0.066471
0.851417 0.000000 0.082111
0.975562 0.000000 0.098729
1.000000 0.000000 0.111437
1.000000 0.000000 0.119257
1.000000 0.000000 0.123167
1.000000 0.000000 0.125122
1.000000 0.000000 0.125122
1.000000 0.000000 0.127077
0.000000 0.026393 0.024438
0.025415 0.025415 0.025415
0.072336 0.024438 0.025415
0.127077 0.022483 0.026393
0.199413 0.017595 0.027370
0.304985 0.007820 0.030303
0.440860 0.000000 0.037146
0.579668 0.000000 0.048876
0.717498 0.000000 0.063539
0.850440 0.000000 0.080156
0.975562 0.000000 0.096774
1.000000 0.000000 0.109482
1.000000 0.000000 0.117302
1.000000 0.000000 0.121212
1.000000 0.000000 0.123167
1.000000 0.000000 0.124145
1.000000 0.000000 0.125122
0.000000 0.067449 0.020528
0.011730 0.066471 0.021505
0.060606 0.065494 0.021505
0.120235 0.063539 0.022483
0.195503 0.059629 0.023460
0.302053 0.049853 0.026393
0.438905 0.028348 0.033236
0.578690 0.000000 0.043988
0.716520 0.000000 0.059629
0.850440 0.000000 0.077224
0.974585 0.000000 0.093842
1.000000 0.000000 0.107527
1.000000 0.000000 0.115347
1.000000 0.000000 0.119257
1.000000 0.000000 0.121212
1.000000 0.000000 0.122190
1.000000 0.000000 0.123167
0.000000 0.118280 0.013685
0.000000 0.117302 0.014663
0.037146 0.117302 0.014663
0.107527 0.116325 0.015640
0.187683 0.113392 0.016618
0.298143 0.107527 0.019550
0.435973 0.093842 0.026393
0.577713 0.067449 0.037146
0.715542 0.020528 0.052786
0.849462 0.000000 0.071359
0.974585 0.000000 0.088954
1.000000 0.000000 0.102639
1.000000 0.000000 0.111437
1.000000 0.000000 0.115347
1.000000 0.000000 0.117302
1.000000 0.000000 0.118280
1.000000 0.000000 0.119257
0.000000 0.185728 0.000000
0.000000 0.185728 0.000000
0.000000 0.184751 0.000000
0.072336 0.184751 0.000000
0.170088 0.182796 0.001955
0.288368 0.179863 0.004888
0.430108 0.172043 0.011730
0.573803 0.158358 0.022483
0.712610 0.136852 0.038123
0.847507 0.102639 0.057674
0.972630 0.042033 0.078201
1.000000 0.000000 0.092864
1.000000 0.000000 0.101662
1.000000 0.000000 0.106549
1.000000 0.000000 0.108504
1.000000 0.000000 0.109482
1.000000 0.000000 0.110459
0.000000 0.284457 0.000000
0.000000 0.284457 0.000000
0.000000 0.284457 0.000000
0.000000 0.284457 0.000000
0.115347 0.283480 0.000000
0.262952 0.281525 0.000000
0.416422 0.276637 0.000000
0.564027 0.268817 0.000000
0.705767 0.258065 0.001955
0.841642 0.243402 0.021505
0.968719 0.223851 0.044966
1.000000 0.205279 0.064516
1.000000 0.191593 0.076246
1.000000 0.183773 0.082111
1.000000 0.179863 0.084066
1.000000 0.178886 0.085044
1.000000 0.175953 0.086999
0.000000 0.412512 0.000000
0.000000 0.412512 0.000000
0.000000 0.412512 0.000000
0.000000 0.412512 0.000000
0.000000 0.411535 0.000000
0.193548 0.410557 0.000000
0.382209 0.407625 0.000000
0.543500 0.403715 0.000000
0.691105 0.396872 0.000000
0.830890 0.389052 0.000000
0.958944 0.378299 0.000000
1.000000 0.369501 0.000000
1.000000 0.363636 0.000978
1.000000 0.359726 0.008798
1.000000 0.358749 0.011730
1.000000 0.357771 0.013685
1.000000 0.356794 0.015640
0.000000 0.545455 0.000000
0.000000 0.545455 0.000000
0.000000 0.544477 0.000000
0.000000 0.544477 0.000000
0.000000 0.544477 0.000000
0.000000 0.543500 0.000000
0.318671 0.541544 0.000000
0.507331 0.538612 0.000000
0.666667 0.534702 0.000000
0.812317 0.528837 0.000000
0.944282 0.522972 0.000000
1.000000 0.517107 0.000000
1.000000 0.513196 0.000000
1.000000 0.511241 0.000000
1.000000 0.510264 0.000000
1.000000 0.509286 0.000000
1.000000 0.509286 0.000000
0.000000 0.675464 0.000000
0.000000 0.675464 0.000000
0.000000 0.675464 0.000000
0.000000 0.675464 0.000000
0.000000 0.674487 0.000000
0.000000 0.674487 0.000000
0.179863 0.672532 0.000000
0.448680 0.670577 0.000000
0.629521 0.667644 0.000000
0.784946 0.663734 0.000000
0.922776 0.658847 0.000000
1.000000 0.654936 0.000000
1.000000 0.652981 0.000000
1.000000 0.651026 0.000000
1.000000 0.650049 0.000000
1.000000 0.650049 0.000000
1.000000 0.650049 0.000000
0.000000 0.801564 0.000000
0.000000 0.801564 0.000000
0.000000 0.801564 0.000000
0.000000 0.801564 0.000000
0.000000 0.801564 0.000000
0.000000 0.800587 0.000000
0.000000 0.799609 0.000000
0.351906 0.797654 0.000000
0.575758 0.795699 0.000000
0.747801 0.792766 0.000000
0.894428 0.788856 0.000000
0.996090 0.785924 0.000000
1.000000 0.783969 0.000000
1.000000 0.782991 0.000000
1.000000 0.782014 0.000000
1.000000 0.782014 0.000000
1.000000 0.782014 0.000000
0.000000 0.919844 0.000000
0.000000 0.919844 0.000000
0.000000 0.919844 0.000000
0.000000 0.918866 0.000000
0.000000 0.918866 0.000000
0.000000 0.918866 0.000000
0.000000 0.917889 0.000000
0.138807 0.916911 0.000000
0.500489 0.914956 0.000000
0.699902 0.912023 0.000000
0.858260 0.910068 0.000000
0.965787 0.907136 0.000000
1.000000 0.905181 0.000000
1.000000 0.904203 0.000000
1.000000 0.904203 0.000000
1.000000 0.904203 0.000000
1.000000 0.904203 0.000000
0.000000 1.000000 0.000000
0.000000 1.000000 0.000000
0.000000 1.000000 0.000000
0.000000 1.000000 0.000000
0.000000 1.000000 0.000000
0.000000 1.000000 0.000000
0.000000 1.000000 0.000000
0.000000 1.000000 0.000000
0.420332 1.000000 0.000000
0.653959 0.998045 0.000000
0.826002 0.996090 0.000000
0.938416 0.994135 0.000000
1.000000 0.992180 0.000000
1.000000 0.991202 0.000000
1.000000 0.991202 0.000000
1.000000 0.991202 0.000000
1.000000 0.991202 0.000000
0.000000 1.000000 0.000000
0.000000 1.000000 0.000000
0.000000 1.000000 0.000000
0.000000 1.000000 0.000000
0.000000 1.000000 0.000000
0.000000 1.000000 0.000000
0.000000 1.000000 0.000000
0.000000 1.000000 0.000000
0.350929 1.000000 0.000000
0.619746 1.000000 0.000000
0.802542 1.000000 0.000000
0.919844 1.000000 0.000000
0.987292 1.000000 0.000000
1.000000 1.000000 0.000000
1.000000 1.000000 0.000000
1.000000 1.000000 0.000000
1.000000 1.000000 0.000000
0.000000 1.000000 0.000000
0.000000 1.000000 0.000000
0.000000 1.000000 0.000000
0.000000 1.000000 0.000000
0.000000 1.000000 0.000000
0.000000 1.000000 0.000000
0.000000 1.000000 0.000000
0.000000 1.000000 0.000000
0.303030 1.000000 0.000000
0.600196 1.000000 0.000000
0.789834 1.000000 0.000000
0.909091 1.000000 0.000000
0.977517 1.000000 0.000000
1.000000 1.000000 0.000000
1.000000 1.000000 0.000000
1.000000 1.000000 0.000000
1.000000 1.000000 0.000000
0.000000 1.000000 0.000000
0.000000 1.000000 0.000000
0.000000 1.000000 0.000000
0.000000 1.000000 0.000000
0.000000 1.000000 0.000000
0.000000 1.000000 0.000000
0.000000 1.000000 0.000000
0.000000 1.000000 0.000000
0.278592 1.000000 0.000000
0.591398 1.000000 0.000000
0.783969 1.000000 0.000000
0.904203 1.000000 0.000000
0.973607 1.000000 0.000000
1.000000 1.000000 0.000000
1.000000 1.000000 0.000000
1.000000 1.000000 0.000000
1.000000 1.000000 0.000000
0.000000 1.000000 0.000000
0.000000 1.000000 0.000000
0.000000 1.000000 0.000000
0.000000 1.000000 0.000000
0.000000 1.000000 0.000000
0.000000 1.000000 0.000000
0.000000 1.000000 0.000000
0.000000 1.000000 0.000000
0.268817 1.000000 0.000000
0.587488 1.000000 0.000000
0.781036 1.000000 0.000000
0.902248 1.000000 0.000000
0.971652 1.000000 0.000000
1.000000 1.000000 0.000000
1.000000 1.000000 0.000000
1.000000 1.000000 0.000000
1.000000 1.000000 0.000000
0.000000 1.000000 0.000000
0.000000 1.000000 0.000000
0.000000 1.000000 0.000000
0.000000 1.000000 0.000000
0.000000 1.000000 0.000000
0.000000 1.000000 0.000000
0.000000 1.000000 0.000000
0.000000 1.000000 0.000000
0.252199 1.000000 0.000000
0.582600 1.000000 0.000000
0.778104 1.000000 0.000000
0.899316 1.000000 0.000000
0.968719 1.000000 0.000000
1.000000 1.000000 0.000000
1.000000 1.000000 0.000000
1.000000 1.000000 0.000000
1.000000 1.000000 0.000000
0.000000 0.000000 0.063539
0.032258 0.000000 0.064516
0.078201 0.000000 0.064516
0.130987 0.000000 0.065494
0.202346 0.000000 0.066471
0.305963 0.000000 0.069404
0.440860 0.000000 0.075269
0.580645 0.000000 0.083089
0.718475 0.000000 0.094819
0.851417 0.000000 0.107527
0.975562 0.000000 0.120235
1.000000 0.000000 0.130987
1.000000 0.000000 0.137830
1.000000 0.000000 0.141740
1.000000 0.000000 0.142717
1.000000 0.000000 0.143695
1.000000 0.000000 0.144673
0.000000 0.017595 0.061584
0.022483 0.016618 0.061584
0.070381 0.015640 0.061584
0.126100 0.013685 0.062561
0.199413 0.009775 0.063539
0.304008 0.000000 0.066471
0.439883 0.000000 0.072336
0.579668 0.000000 0.081134
0.717498 0.000000 0.091887
0.850440 0.000000 0.105572
0.975562 0.000000 0.119257
1.000000 0.000000 0.130010
1.000000 0.000000 0.135875
1.000000 0.000000 0.139785
1.000000 0.000000 0.141740
1.000000 0.000000 0.141740
1.000000 0.000000 0.142717
0.000000 0.059629 0.057674
0.009775 0.058651 0.057674
0.057674 0.057674 0.057674
0.119257 0.055718 0.058651
0.194526 0.051808 0.059629
0.302053 0.042033 0.062561
0.438905 0.020528 0.068426
0.578690 0.000000 0.078201
0.716520 0.000000 0.089932
0.850440 0.000000 0.102639
0.974585 0.000000 0.116325
1.000000 0.000000 0.128055
1.000000 0.000000 0.133920
1.000000 0.000000 0.137830
1.000000 0.000000 0.139785
1.000000 0.000000 0.139785
1.000000 0.000000 0.140762
0.000000 0.113392 0.049853
0.000000 0.113392 0.050831
0.035191 0.112414 0.050831
0.105572 0.111437 0.051808
0.186706 0.108504 0.052786
0.297165 0.102639 0.055718
0.435973 0.087977 0.062561
0.576735 0.059629 0.072336
0.715542 0.011730 0.084066
0.849462 0.000000 0.098729
0.973607 0.000000 0.112414
1.000000 0.000000 0.124145
1.000000 0.000000 0.130987
1.000000 0.000000 0.134897
1.000000 0.000000 0.135875
1.000000 0.000000 0.136852
1.000000 0.000000 0.137830
0.000000 0.182796 0.035191
0.000000 0.182796 0.035191
0.000000 0.182796 0.036168
0.070381 0.181818 0.036168
0.169110 0.179863 0.038123
0.287390 0.176931 0.041056
0.430108 0.168133 0.047898
0.572825 0.154448 0.058651
0.712610 0.132942 0.072336
0.846530 0.097752 0.087977
0.972630 0.034213 0.103617
1.000000 0.000000 0.115347
1.000000 0.000000 0.123167
1.000000 0.000000 0.127077
1.000000 0.000000 0.129032
1.000000 0.000000 0.129032
1.000000 0.000000 0.130010
0.000000 0.283480 0.000000
0.000000 0.283480 0.000000
0.000000 0.282502 0.000000
0.000000 0.282502 0.000978
0.114370 0.281525 0.001955
0.261975 0.279570 0.004888
0.415445 0.274682 0.011730
0.564027 0.266862 0.022483
0.705767 0.256109 0.038123
0.841642 0.241447 0.057674
0.967742 0.220919 0.078201
1.000000 0.202346 0.092864
1.000000 0.188661 0.102639
1.000000 0.180841 0.106549
1.000000 0.176931 0.108504
1.000000 0.175953 0.109482
1.000000 0.173021 0.110459
0.000000 0.411535 0.000000
0.000000 0.411535 0.000000
0.000000 0.411535 0.000000
0.000000 0.411535 0.000000
0.000000 0.410557 0.000000
0.192571 0.409580 0.000000
0.382209 0.406647 0.000000
0.542522 0.402737 0.000000
0.691105 0.395894 0.000000
0.830890 0.388074 0.000000
0.958944 0.377322 0.003910
1.000000 0.368524 0.024438
1.000000 0.361681 0.038123
1.000000 0.358749 0.044966
1.000000 0.356794 0.048876
1.000000 0.356794 0.049853
1.000000 0.355816 0.051808
0.000000 0.544477 0.000000
0.000000 0.544477 0.000000
0.000000 0.544477 0.000000
0.000000 0.544477 0.000000
0.000000 0.543500 0.000000
0.000000 0.542522 0.000000
0.318671 0.541544 0.000000
0.506354 0.537634 0.000000
0.666667 0.533724 0.000000
0.812317 0.528837 0.000000
0.944282 0.521994 0.000000
1.000000 0.516129 0.000000
1.000000 0.512219 0.000000
1.000000 0.510264 0.000000
1.000000 0.509286 0.000000
1.000000 0.509286 0.000000
1.000000 0.508309 0.000000
0.000000 0.674487 0.000000
0.000000 0.674487 0.000000
0.000000 0.674487 0.000000
0.000000 0.674487 0.000000
0.000000 0.674487 0.000000
0.000000 0.673509 0.000000
0.178886 0.672532 0.000000
0.448680 0.670577 0.000000
0.628543 0.667644 0.000000
0.784946 0.663734 0.000000
0.922776 0.658847 0.000000
1.000000 0.654936 0.000000
1.000000 0.652004 0.000000
1.000000 0.650049 0.000000
1.000000 0.650049 0.000000
1.000000 0.650049 0.000000
1.000000 0.649071 0.000000
0.000000 0.801564 0.000000
0.000000 0.801564 0.000000
0.000000 0.800587 0.000000
0.000000 0.800587 0.000000
0.000000 0.800587 0.000000
0.000000 0.800587 0.000000
0.000000 0.799609 0.000000
0.351906 0.797654 0.000000
0.575758 0.795699 0.000000
0.747801 0.792766 0.000000
0.894428 0.788856 0.000000
0.996090 0.785924 0.000000
1.000000 0.783969 0.000000
1.000000 0.782991 0.000000
1.000000 0.782014 0.000000
1.000000 0.782014 0.000000
1.000000 0.782014 0.000000
0.000000 0.918866 0.000000
0.000000 0.918866 0.000000
0.000000 0.918866 0.000000
0.000000 0.918866 0.000000
0.000000 0.918866 0.000000
0.000000 0.918866 0.000000
0.000000 0.917889 0.000000
0.136852 0.915934 0.000000
0.500489 0.914956 0.000000
0.698925 0.912023 0.000000
0.858260 0.909091 0.000000
0.965787 0.907136 0.000000
1.000000 0.905181 0.000000
1.000000 0.904203 0.000000
1.000000 0.904203 0.000000
1.000000 0.903226 0.000000
1.000000 0.903226 0.000000
0.000000 1.000000 0.000000
0.000000 1.000000 0.000000
0.000000 1.000000 0.000000
0.000000 1.000000 0.000000
0.000000 1.000000 0.000000
0.000000 1.000000 0.000000
0.000000 1.000000 0.000000
0.000000 1.000000 0.000000
0.420332 1.000000 0.000000
0.653959 0.998045 0.000000
0.826002 0.996090 0.000000
0.938416 0.993157 0.000000
1.000000 0.992180 0.000000
1.000000 0.991202 0.000000
1.000000 0.991202 0.000000
1.000000 0.991202 0.000000
1.000000 0.990225 0.000000
0.000000 1.000000 0.000000
0.000000 1.000000 0.000000
0.000000 1.000000 0.000000
0.000000 1.000000 0.000000
0.000000 1.000000 0.000000
0.000000 1.000000 0.000000
0.000000 1.000000 0.000000
0.000000 1.000000 0.000000
0.349951 1.000000 0.000000
0.619746 1.000000 0.000000
0.802542 1.000000 0.000000
0.919844 1.000000 0.000000
0.986315 1.000000 0.000000
1.000000 1.000000 0.000000
1.000000 1.000000 0.000000
1.000000 1.000000 0.000000
1.000000 1.000000 0.000000
0.000000 1.000000 0.000000
0.000000 1.000000 0.000000
0.000000 1.000000 0.000000
0.000000 1.000000 0.000000
0.000000 1.000000 0.000000
0.000000 1.000000 0.000000
0.000000 1.000000 0.000000
0.000000 1.000000 0.000000
0.302053 1.000000 0.000000
0.600196 1.000000 0.000000
0.788856 1.000000 0.000000
0.909091 1.000000 0.000000
0.977517 1.000000 0.000000
1.000000 1.000000 0.000000
1.000000 1.000000 0.000000
1.000000 1.000000 0.000000
1.000000 1.000000 0.000000
0.000000 1.000000 0.000000
0.000000 1.000000 0.000000
0.000000 1.000000 0.000000
0.000000 1.000000 0.000000
0.000000 1.000000 0.000000
0.000000 1.000000 0.000000
0.000000 1.000000 0.000000
0.000000 1.000000 0.000000
0.278592 1.000000 0.000000
0.591398 1.000000 0.000000
0.783969 1.000000 0.000000
0.904203 1.000000 0.000000
0.972630 1.000000 0.000000
1.000000 1.000000 0.000000
1.000000 1.000000 0.000000
1.000000 1.000000 0.000000
1.000000 1.000000 0.000000
0.000000 1.000000 0.000000
0.000000 1.000000 0.000000
0.000000 1.000000 0.000000
0.000000 1.000000 0.000000
0.000000 1.000000 0.000000
0.000000 1.000000 0.000000
0.000000 1.000000 0.000000
0.000000 1.000000 0.000000
0.267840 1.000000 0.000000
0.587488 1.000000 0.000000
0.781036 1.000000 0.000000
0.902248 1.000000 0.000000
0.971652 1.000000 0.000000
1.000000 1.000000 0.000000
1.000000 1.000000 0.000000
1.000000 1.000000 0.000000
1.000000 1.000000 0.000000
0.000000 1.000000 0.000000
0.000000 1.000000 0.000000
0.000000 1.000000 0.000000
0.000000 1.000000 0.000000
0.000000 1.000000 0.000000
0.000000 1.000000 0.000000
0.000000 1.000000 0.000000
0.000000 1.000000 0.000000
0.251222 1.000000 0.000000
0.582600 1.000000 0.000000
0.778104 1.000000 0.000000
0.899316 1.000000 0.000000
0.968719 1.000000 0.000000
1.000000 1.000000 0.000000
1.000000 1.000000 0.000000
1.000000 1.000000 0.000000
1.000000 1.000000 0.000000
0.000000 0.000000 0.110459
0.027370 0.000000 0.110459
0.074291 0.000000 0.110459
0.129032 0.000000 0.111437
0.200391 0.000000 0.111437
0.305963 0.000000 0.113392
0.440860 0.000000 0.117302
0.580645 0.000000 0.123167
0.717498 0.000000 0.130987
0.851417 0.000000 0.140762
0.975562 0.000000 0.151515
1.000000 0.000000 0.160313
1.000000 0.000000 0.165200
1.000000 0.000000 0.168133
1.000000 0.000000 0.170088
1.000000 0.000000 0.170088
1.000000 0.000000 0.171065
0.000000 0.003910 0.108504
0.017595 0.002933 0.108504
0.065494 0.001955 0.108504
