output.cube
TITLE AlexaLogC->R709
LUT_3D_SIZE 9
0.000000 0.000000 0.000000
0.082111 0.000000 0.000978
0.203324 0.000000 0.002933
0.441838 0.000000 0.012708
0.718475 0.000000 0.039101
0.975562 0.000000 0.079179
1.000000 0.000000 0.102639
1.000000 0.000000 0.109482
1.000000 0.000000 0.111437
0.000000 0.072336 0.000000
0.062561 0.071359 0.000000
0.196481 0.065494 0.000000
0.438905 0.035191 0.005865
0.717498 0.000000 0.032258
0.974585 0.000000 0.073314
1.000000 0.000000 0.097752
1.000000 0.000000 0.104594
1.000000 0.000000 0.106549
0.000000 0.187683 0.000000
0.000000 0.187683 0.000000
0.171065 0.185728 0.000000
0.431085 0.173998 0.000000
0.712610 0.139785 0.009775
0.972630 0.048876 0.052786
1.000000 0.000000 0.082111
1.000000 0.000000 0.089932
1.000000 0.000000 0.092864
0.000000 0.413490 0.000000
0.000000 0.413490 0.000000
0.000000 0.412512 0.000000
0.383187 0.408602 0.000000
0.691105 0.397849 0.000000
0.958944 0.379277 0.000000
1.000000 0.364614 0.000000
1.000000 0.359726 0.000000
1.000000 0.357771 0.000000
0.000000 0.675464 0.000000
0.000000 0.675464 0.000000
0.000000 0.675464 0.000000
0.180841 0.673509 0.000000
0.629521 0.668622 0.000000
0.923754 0.659824 0.000000
1.000000 0.652981 0.000000
1.000000 0.651026 0.000000
1.000000 0.650049 0.000000
0.000000 0.919844 0.000000
0.000000 0.919844 0.000000
0.000000 0.919844 0.000000
0.000000 0.917889 0.000000
0.500489 0.914956 0.000000
0.858260 0.910068 0.000000
1.000000 0.906158 0.000000
1.000000 0.904203 0.000000
1.000000 0.904203 0.000000
0.000000 1.000000 0.000000
0.000000 1.000000 0.000000
0.000000 1.000000 0.000000
0.000000 1.000000 0.000000
0.350929 1.000000 0.000000
0.802542 1.000000 0.000000
0.987292 1.000000 0.000000
1.000000 1.000000 0.000000
1.000000 1.000000 0.000000
0.000000 1.000000 0.000000
0.000000 1.000000 0.000000
0.000000 1.000000 0.000000
0.000000 1.000000 0.000000
0.279570 1.000000 0.000000
0.783969 1.000000 0.000000
0.973607 1.000000 0.000000
1.000000 1.000000 0.000000
1.000000 1.000000 0.000000
0.000000 1.000000 0.000000
0.000000 1.000000 0.000000
0.000000 1.000000 0.000000
0.000000 1.000000 0.000000
0.252199 1.000000 0.000000
0.778104 1.000000 0.000000
0.968719 1.000000 0.000000
1.000000 1.000000 0.000000
1.000000 1.000000 0.000000
0.000000 0.000000 0.063539
0.078201 0.000000 0.064516
0.202346 0.000000 0.066471
0.440860 0.000000 0.075269
0.718475 0.000000 0.094819
0.975562 0.000000 0.120235
1.000000 0.000000 0.137830
1.000000 0.000000 0.142717
1.000000 0.000000 0.144673
0.000000 0.059629 0.057674
0.057674 0.057674 0.057674
0.194526 0.051808 0.059629
0.438905 0.020528 0.068426
0.716520 0.000000 0.089932
0.974585 0.000000 0.116325
1.000000 0.000000 0.133920
1.000000 0.000000 0.139785
1.000000 0.000000 0.140762
0.000000 0.182796 0.035191
0.000000 0.182796 0.036168
0.169110 0.179863 0.038123
0.430108 0.168133 0.047898
0.712610 0.132942 0.072336
0.972630 0.034213 0.103617
1.000000 0.000000 0.123167
1.000000 0.000000 0.129032
1.000000 0.000000 0.130010
0.000000 0.411535 0.000000
0.000000 0.411535 0.000000
0.000000 0.410557 0.000000
0.382209 0.406647 0.000000
0.691105 0.395894 0.000000
0.958944 0.377322 0.003910
1.000000 0.361681 0.038123
1.000000 0.356794 0.048876
1.000000 0.355816 0.051808
0.000000 0.674487 0.000000
0.000000 0.674487 0.000000
0.000000 0.674487 0.000000
0.178886 0.672532 0.000000
0.628543 0.667644 0.000000
0.922776 0.658847 0.000000
1.000000 0.652004 0.000000
1.000000 0.650049 0.000000
1.000000 0.649071 0.000000
0.000000 0.918866 0.000000
0.000000 0.918866 0.000000
0.000000 0.918866 0.000000
0.000000 0.917889 0.000000
0.500489 0.914956 0.000000
0.858260 0.909091 0.000000
1.000000 0.905181 0.000000
1.000000 0.904203 0.000000
1.000000 0.903226 0.000000
0.000000 1.000000 0.000000
0.000000 1.000000 0.000000
0.000000 1.000000 0.000000
0.000000 1.000000 0.000000
0.349951 1.000000 0.000000
0.802542 1.000000 0.000000
0.986315 1.000000 0.000000
1.000000 1.000000 0.000000
1.000000 1.000000 0.000000
0.000000 1.000000 0.000000
0.000000 1.000000 0.000000
0.000000 1.000000 0.000000
0.000000 1.000000 0.000000
0.278592 1.000000 0.000000
0.783969 1.000000 0.000000
0.972630 1.000000 0.000000
1.000000 1.000000 0.000000
1.000000 1.000000 0.000000
0.000000 1.000000 0.000000
0.000000 1.000000 0.000000
0.000000 1.000000 0.000000
0.000000 1.000000 0.000000
0.251222 1.000000 0.000000
0.778104 1.000000 0.000000
0.968719 1.000000 0.000000
1.000000 1.000000 0.000000
1.000000 1.000000 0.000000
0.000000 0.000000 0.173021
0.065494 0.000000 0.173998
0.197458 0.000000 0.173998
0.439883 0.000000 0.177908
0.717498 0.000000 0.187683
0.975562 0.000000 0.201369
1.000000 0.000000 0.212121
1.000000 0.000000 0.215054
1.000000 0.000000 0.216031
0.000000 0.014663 0.171065
0.043011 0.012708 0.171065
0.189638 0.006843 0.172043
0.436950 0.000000 0.175953
0.715542 0.000000 0.184751
0.974585 0.000000 0.199413
1.000000 0.000000 0.210166
1.000000 0.000000 0.213099
1.000000 0.000000 0.214076
0.000000 0.166178 0.162268
0.000000 0.165200 0.162268
0.163245 0.163245 0.163245
0.428153 0.149560 0.167155
0.711632 0.108504 0.176931
0.971652 0.000000 0.192571
1.000000 0.000000 0.203324
1.000000 0.000000 0.206256
1.000000 0.000000 0.207234
0.000000 0.405670 0.106549
0.000000 0.405670 0.107527
0.000000 0.404692 0.108504
0.380254 0.400782 0.114370
0.690127 0.390029 0.128055
0.958944 0.371457 0.148583
1.000000 0.354839 0.163245
1.000000 0.349951 0.167155
1.000000 0.348974 0.168133
0.000000 0.672532 0.000000
0.000000 0.671554 0.000000
0.000000 0.671554 0.000000
0.173998 0.669599 0.000000
0.627566 0.664712 0.000000
0.922776 0.655914 0.000000
1.000000 0.649071 0.000000
1.000000 0.647116 0.000000
1.000000 0.646139 0.000000
0.000000 0.917889 0.000000
0.000000 0.917889 0.000000
0.000000 0.916911 0.000000
0.000000 0.915934 0.000000
0.498534 0.913001 0.000000
0.858260 0.907136 0.000000
1.000000 0.903226 0.000000
1.000000 0.902248 0.000000
1.000000 0.901271 0.000000
0.000000 1.000000 0.000000
0.000000 1.000000 0.000000
0.000000 1.000000 0.000000
0.000000 1.000000 0.000000
0.347996 1.000000 0.000000
0.801564 1.000000 0.000000
0.986315 1.000000 0.000000
1.000000 1.000000 0.000000
1.000000 1.000000 0.000000
0.000000 1.000000 0.000000
0.000000 1.000000 0.000000
0.000000 1.000000 0.000000
0.000000 1.000000 0.000000
0.274682 1.000000 0.000000
0.782991 1.000000 0.000000
0.972630 1.000000 0.000000
1.000000 1.000000 0.000000
1.000000 1.000000 0.000000
0.000000 1.000000 0.000000
0.000000 1.000000 0.000000
0.000000 1.000000 0.000000
0.000000 1.000000 0.000000
0.247312 1.000000 0.000000
0.777126 1.000000 0.000000
0.968719 1.000000 0.000000
1.000000 1.000000 0.000000
1.000000 1.000000 0.000000
0.000000 0.000000 0.387097
0.000000 0.000000 0.387097
0.170088 0.000000 0.388074
0.430108 0.000000 0.389052
0.712610 0.000000 0.392962
0.972630 0.000000 0.398827
1.000000 0.000000 0.402737
1.000000 0.000000 0.404692
1.000000 0.000000 0.404692
0.000000 0.000000 0.386119
0.000000 0.000000 0.386119
0.161290 0.000000 0.387097
0.428153 0.000000 0.388074
0.711632 0.000000 0.391984
0.971652 0.000000 0.397849
1.000000 0.000000 0.401760
1.000000 0.000000 0.403715
1.000000 0.000000 0.403715
0.000000 0.014663 0.383187
0.000000 0.012708 0.383187
0.128055 0.006843 0.384164
0.419355 0.000000 0.385142
0.707722 0.000000 0.389052
0.968719 0.000000 0.394917
1.000000 0.000000 0.398827
1.000000 0.000000 0.400782
1.000000 0.000000 0.400782
0.000000 0.374389 0.367546
0.000000 0.374389 0.367546
0.000000 0.373412 0.367546
0.369501 0.369501 0.369501
0.685239 0.356794 0.372434
0.956012 0.335288 0.379277
1.000000 0.316716 0.384164
1.000000 0.310850 0.385142
1.000000 0.308895 0.386119
0.000000 0.657869 0.318671
0.000000 0.657869 0.319648
0.000000 0.656892 0.319648
0.141740 0.654936 0.321603
0.622678 0.650049 0.325513
0.919844 0.641251 0.333333
1.000000 0.633431 0.339198
1.000000 0.631476 0.340176
1.000000 0.630499 0.341153
0.000000 0.908113 0.208211
0.000000 0.908113 0.208211
0.000000 0.908113 0.208211
0.000000 0.907136 0.211144
0.491691 0.904203 0.218964
0.854350 0.898338 0.231672
1.000000 0.894428 0.240469
1.000000 0.892473 0.242424
1.000000 0.892473 0.243402
0.000000 1.000000 0.000000
0.000000 1.000000 0.000000
0.000000 1.000000 0.000000
0.000000 1.000000 0.000000
0.335288 1.000000 0.024438
0.797654 1.000000 0.067449
0.983382 1.000000 0.093842
1.000000 1.000000 0.100684
1.000000 1.000000 0.102639
0.000000 1.000000 0.000000
0.000000 1.000000 0.000000
0.000000 1.000000 0.000000
0.000000 1.000000 0.000000
0.257087 1.000000 0.000000
0.779081 1.000000 0.000000
0.969697 1.000000 0.000000
1.000000 1.000000 0.000000
1.000000 1.000000 0.000000
0.000000 1.000000 0.000000
0.000000 1.000000 0.000000
0.000000 1.000000 0.000000
0.000000 1.000000 0.000000
0.227761 1.000000 0.000000
0.773216 1.000000 0.000000
0.965787 1.000000 0.000000
1.000000 1.000000 0.000000
1.000000 1.000000 0.000000
0.000000 0.000000 0.636364
0.000000 0.000000 0.636364
0.051808 0.000000 0.636364
0.405670 0.000000 0.637341
0.700880 0.000000 0.638319
0.964809 0.000000 0.641251
1.000000 0.000000 0.644184
1.000000 0.000000 0.644184
1.000000 0.000000 0.645161
0.000000 0.000000 0.635386
0.000000 0.000000 0.635386
0.028348 0.000000 0.635386
0.401760 0.000000 0.636364
0.699902 0.000000 0.638319
0.964809 0.000000 0.641251
1.000000 0.000000 0.643206
1.000000 0.000000 0.644184
1.000000 0.000000 0.644184
0.000000 0.000000 0.634409
0.000000 0.000000 0.634409
0.000000 0.000000 0.634409
0.392962 0.000000 0.635386
0.695992 0.000000 0.636364
0.961877 0.000000 0.639296
1.000000 0.000000 0.642229
1.000000 0.000000 0.642229
1.000000 0.000000 0.643206
0.000000 0.267840 0.626588
0.000000 0.266862 0.626588
0.000000 0.265885 0.626588
0.337243 0.259042 0.627566
0.673509 0.238514 0.629521
0.948192 0.199413 0.632454
1.000000 0.162268 0.634409
1.000000 0.147605 0.635386
1.000000 0.143695 0.635386
0.000000 0.616813 0.605083
0.000000 0.616813 0.605083
0.000000 0.615836 0.606061
0.000000 0.613881 0.606061
0.608016 0.608016 0.608016
0.912023 0.598240 0.610948
1.000000 0.590420 0.613881
1.000000 0.588465 0.614858
1.000000 0.587488 0.614858
0.000000 0.884653 0.567937
0.000000 0.884653 0.568915
0.000000 0.883675 0.568915
0.000000 0.882698 0.569892
0.471163 0.879765 0.571847
0.845552 0.873900 0.574780
1.000000 0.869990 0.577713
1.000000 0.868035 0.578690
1.000000 0.868035 0.578690
0.000000 1.000000 0.536657
0.000000 1.000000 0.536657
0.000000 1.000000 0.537634
0.000000 1.000000 0.537634
0.298143 1.000000 0.540567
0.787879 1.000000 0.544477
0.976540 1.000000 0.546432
1.000000 1.000000 0.547410
1.000000 1.000000 0.548387
0.000000 1.000000 0.526882
0.000000 1.000000 0.526882
0.000000 1.000000 0.526882
0.000000 1.000000 0.527859
0.202346 1.000000 0.529814
0.768328 1.000000 0.533724
0.962854 1.000000 0.536657
1.000000 1.000000 0.537634
1.000000 1.000000 0.537634
0.000000 1.000000 0.522972
0.000000 1.000000 0.522972
0.000000 1.000000 0.522972
0.000000 1.000000 0.523949
0.160313 1.000000 0.526882
0.762463 1.000000 0.530792
0.957967 1.000000 0.533724
1.000000 1.000000 0.534702
1.000000 1.000000 0.534702
0.000000 0.000000 0.867058
0.000000 0.000000 0.868035
0.000000 0.000000 0.868035
0.357771 0.000000 0.868035
0.681329 0.000000 0.869013
0.953079 0.000000 0.870968
1.000000 0.000000 0.871945
1.000000 0.000000 0.872923
1.000000 0.000000 0.872923
0.000000 0.000000 0.867058
0.000000 0.000000 0.867058
0.000000 0.000000 0.867058
0.354839 0.000000 0.868035
0.680352 0.000000 0.869013
0.952102 0.000000 0.870968
1.000000 0.000000 0.871945
1.000000 0.000000 0.872923
1.000000 0.000000 0.872923
0.000000 0.000000 0.866080
0.000000 0.000000 0.866080
0.000000 0.000000 0.866080
0.343109 0.000000 0.867058
0.675464 0.000000 0.868035
0.950147 0.000000 0.869990
1.000000 0.000000 0.870968
1.000000 0.000000 0.871945
1.000000 0.000000 0.871945
0.000000 0.000000 0.861193
0.000000 0.000000 0.861193
0.000000 0.000000 0.862170
0.273705 0.000000 0.862170
0.652004 0.000000 0.863148
0.936461 0.000000 0.865103
1.000000 0.000000 0.866080
1.000000 0.000000 0.867058
1.000000 0.000000 0.867058
0.000000 0.539589 0.848485
0.000000 0.539589 0.848485
0.000000 0.538612 0.848485
0.000000 0.536657 0.849462
0.583578 0.528837 0.850440
0.898338 0.517107 0.852395
1.000000 0.507331 0.853372
1.000000 0.504399 0.854350
1.000000 0.503421 0.854350
0.000000 0.842620 0.826979
0.000000 0.842620 0.826979
0.000000 0.841642 0.826979
0.000000 0.840665 0.827957
0.434018 0.836755 0.828934
0.830890 0.830890 0.830890
1.000000 0.826002 0.832845
1.000000 0.825024 0.832845
1.000000 0.824047 0.832845
0.000000 0.995112 0.809384
0.000000 0.995112 0.809384
0.000000 0.995112 0.810362
0.000000 0.994135 0.810362
0.219941 0.991202 0.811339
0.772238 0.986315 0.813294
0.964809 0.982405 0.815249
1.000000 0.981427 0.815249
1.000000 0.981427 0.816227
0.000000 1.000000 0.804497
0.000000 1.000000 0.804497
0.000000 1.000000 0.804497
0.000000 1.000000 0.804497
0.012708 1.000000 0.806452
0.751711 1.000000 0.808407
0.950147 1.000000 0.809384
1.000000 1.000000 0.810362
1.000000 1.000000 0.810362
0.000000 1.000000 0.802542
0.000000 1.000000 0.802542
0.000000 1.000000 0.802542
0.000000 1.000000 0.803519
0.000000 1.000000 0.804497
0.744868 1.000000 0.806452
0.946237 1.000000 0.807429
0.998045 1.000000 0.808407
1.000000 1.000000 0.808407
0.000000 0.000000 0.997067
0.000000 0.000000 0.997067
0.000000 0.000000 0.997067
0.314761 0.000000 0.997067
0.665689 0.000000 0.998045
0.943304 0.000000 1.000000
1.000000 0.000000 1.000000
1.000000 0.000000 1.000000
1.000000 0.000000 1.000000
0.000000 0.000000 0.997067
0.000000 0.000000 0.997067
0.000000 0.000000 0.997067
0.310850 0.000000 0.997067
0.663734 0.000000 0.998045
0.942326 0.000000 0.999022
1.000000 0.000000 1.000000
1.000000 0.000000 1.000000
1.000000 0.000000 1.000000
0.000000 0.000000 0.996090
0.000000 0.000000 0.996090
0.000000 0.000000 0.996090
0.297165 0.000000 0.996090
0.658847 0.000000 0.997067
0.940371 0.000000 0.999022
1.000000 0.000000 1.000000
1.000000 0.000000 1.000000
1.000000 0.000000 1.000000
0.000000 0.000000 0.992180
0.000000 0.000000 0.992180
0.000000 0.000000 0.992180
0.207234 0.000000 0.992180
0.634409 0.000000 0.993157
0.926686 0.000000 0.995112
1.000000 0.000000 0.996090
1.000000 0.000000 0.996090
1.000000 0.000000 0.997067
0.000000 0.466276 0.982405
0.000000 0.465298 0.982405
0.000000 0.465298 0.982405
0.000000 0.461388 0.982405
0.563050 0.452590 0.983382
0.888563 0.437928 0.984360
1.000000 0.425220 0.986315
1.000000 0.421310 0.986315
1.000000 0.419355 0.986315
0.000000 0.807429 0.964809
0.000000 0.807429 0.964809
0.000000 0.806452 0.964809
0.000000 0.805474 0.965787
0.401760 0.801564 0.966764
0.819159 0.794721 0.967742
0.999022 0.789834 0.968719
1.000000 0.787879 0.969697
1.000000 0.787879 0.969697
0.000000 0.968719 0.951124
0.000000 0.968719 0.951124
0.000000 0.967742 0.951124
0.000000 0.966764 0.952102
0.121212 0.963832 0.953079
0.758553 0.958944 0.954057
0.955034 0.955034 0.955034
1.000000 0.954057 0.956012
1.000000 0.954057 0.956012
0.000000 1.000000 0.947214
0.000000 1.000000 0.947214
0.000000 1.000000 0.947214
0.000000 1.000000 0.947214
0.000000 1.000000 0.948192
0.738025 1.000000 0.950147
0.941349 0.999022 0.951124
0.993157 0.998045 0.951124
1.000000 0.998045 0.951124
0.000000 1.000000 0.945259
0.000000 1.000000 0.945259
0.000000 1.000000 0.945259
0.000000 1.000000 0.946237
0.000000 1.000000 0.947214
0.731183 1.000000 0.948192
0.936461 1.000000 0.950147
0.989247 1.000000 0.950147
1.000000 1.000000 0.950147
0.000000 0.000000 1.000000
0.000000 0.000000 1.000000
0.000000 0.000000 1.000000
0.299120 0.000000 1.000000
0.659824 0.000000 1.000000
0.940371 0.000000 1.000000
1.000000 0.000000 1.000000
1.000000 0.000000 1.000000
1.000000 0.000000 1.000000
0.000000 0.000000 1.000000
0.000000 0.000000 1.000000
0.000000 0.000000 1.000000
0.294233 0.000000 1.000000
0.658847 0.000000 1.000000
0.939394 0.000000 1.000000
1.000000 0.000000 1.000000
1.000000 0.000000 1.000000
1.000000 0.000000 1.000000
0.000000 0.000000 1.000000
0.000000 0.000000 1.000000
0.000000 0.000000 1.000000
0.279570 0.000000 1.000000
0.653959 0.000000 1.000000
0.937439 0.000000 1.000000
1.000000 0.000000 1.000000
1.000000 0.000000 1.000000
1.000000 0.000000 1.000000
0.000000 0.000000 1.000000
0.000000 0.000000 1.000000
0.000000 0.000000 1.000000
0.179863 0.000000 1.000000
0.629521 0.000000 1.000000
0.922776 0.000000 1.000000
1.000000 0.000000 1.000000
1.000000 0.000000 1.000000
1.000000 0.000000 1.000000
0.000000 0.438905 1.000000
0.000000 0.438905 1.000000
0.000000 0.437928 1.000000
0.000000 0.434018 1.000000
0.556207 0.424242 1.000000
0.884653 0.407625 1.000000
1.000000 0.393939 1.000000
1.000000 0.389052 1.000000
1.000000 0.388074 1.000000
0.000000 0.795699 1.000000
0.000000 0.795699 1.000000
0.000000 0.794721 1.000000
0.000000 0.793744 1.000000
0.390029 0.789834 1.000000
0.815249 0.782991 1.000000
0.996090 0.778104 1.000000
1.000000 0.776149 1.000000
1.000000 0.776149 1.000000
0.000000 0.959922 0.990225
0.000000 0.959922 0.990225
0.000000 0.958944 0.990225
0.000000 0.957967 0.990225
0.064516 0.955034 0.991202
0.754643 0.950147 0.993157
0.952102 0.946237 0.994135
1.000000 0.945259 0.994135
1.000000 0.945259 0.994135
0.000000 1.000000 0.985337
0.000000 1.000000 0.985337
0.000000 1.000000 0.985337
0.000000 1.000000 0.986315
0.000000 0.999022 0.987292
0.733138 0.995112 0.988270
0.938416 0.991202 0.989247
0.990225 0.990225 0.990225
1.000000 0.989247 0.990225
0.000000 1.000000 0.984360
0.000000 1.000000 0.984360
0.000000 1.000000 0.984360
0.000000 1.000000 0.985337
0.000000 1.000000 0.986315
0.726295 1.000000 0.987292
0.933529 1.000000 0.988270
0.986315 1.000000 0.989247
1.000000 1.000000 0.989247
0.000000 0.000000 1.000000
0.000000 0.000000 1.000000
0.000000 0.000000 1.000000
0.294233 0.000000 1.000000
0.657869 0.000000 1.000000
0.939394 0.000000 1.000000
1.000000 0.000000 1.000000
1.000000 0.000000 1.000000
1.000000 0.000000 1.000000
0.000000 0.000000 1.000000
0.000000 0.000000 1.000000
0.000000 0.000000 1.000000
0.289345 0.000000 1.000000
0.656892 0.000000 1.000000
0.938416 0.000000 1.000000
1.000000 0.000000 1.000000
1.000000 0.000000 1.000000
1.000000 0.000000 1.000000
0.000000 0.000000 1.000000
0.000000 0.000000 1.000000
0.000000 0.000000 1.000000
0.274682 0.000000 1.000000
0.652004 0.000000 1.000000
0.936461 0.000000 1.000000
1.000000 0.000000 1.000000
1.000000 0.000000 1.000000
1.000000 0.000000 1.000000
0.000000 0.000000 1.000000
0.000000 0.000000 1.000000
0.000000 0.000000 1.000000
0.170088 0.000000 1.000000
0.627566 0.000000 1.000000
0.921799 0.000000 1.000000
1.000000 0.000000 1.000000
1.000000 0.000000 1.000000
1.000000 0.000000 1.000000
0.000000 0.430108 1.000000
0.000000 0.430108 1.000000
0.000000 0.429130 1.000000
0.000000 0.425220 1.000000
0.554252 0.415445 1.000000
0.883675 0.397849 1.000000
1.000000 0.384164 1.000000
1.000000 0.379277 1.000000
1.000000 0.377322 1.000000
0.000000 0.791789 1.000000
0.000000 0.791789 1.000000
0.000000 0.791789 1.000000
0.000000 0.789834 1.000000
0.387097 0.785924 1.000000
0.814272 0.779081 1.000000
0.995112 0.774194 1.000000
1.000000 0.772238 1.000000
1.000000 0.772238 1.000000
0.000000 0.956989 1.000000
0.000000 0.956989 1.000000
0.000000 0.956989 1.000000
0.000000 0.956012 1.000000
0.040078 0.953079 1.000000
0.752688 0.948192 1.000000
0.951124 0.944282 1.000000
1.000000 0.942326 1.000000
1.000000 0.942326 1.000000
0.000000 1.000000 0.997067
0.000000 1.000000 0.997067
0.000000 1.000000 0.997067
0.000000 1.000000 0.997067
0.000000 0.997067 0.998045
0.732160 0.992180 1.000000
0.937439 0.988270 1.000000
0.989247 0.987292 1.000000
1.000000 0.987292 1.000000
0.000000 1.000000 0.996090
0.000000 1.000000 0.996090
0.000000 1.000000 0.996090
0.000000 1.000000 0.996090
0.000000 1.000000 0.997067
0.725318 1.000000 0.998045
0.932551 1.000000 0.999022
0.985337 1.000000 1.000000
1.000000 1.000000 1.000000
